;FLAVOR:Marlin
;TIME:12693
;Filament used: 8.65117m
;Layer height: 0.2
;MINX:62.249
;MINY:43.4
;MINZ:0.2
;MAXX:157.751
;MAXY:173.751
;MAXZ:15
;Generated with Cura_SteamEngine 5.4.0
M82 ;absolute extrusion mode
; Ender 3 S1 Start G-code
; M413 S0 ; Disable power loss recovery
G92 E0 ; Reset Extruder

; Prep surfaces before auto home for better accuracy
M140 S60
M104 S200

G28 O ; Home all untrusted axes
G1 Z10.0 F3000 ; Move Z Axis up little to prevent scratching of Heat Bed
G1 X0 Y0

M190 S60
M109 S200

G1 X0.1 Y20 Z0.3 F5000.0 ; Move to start position
G1 X0.1 Y200.0 Z0.3 F1500.0 E15 ; Draw the first line
G1 X0.4 Y200.0 Z0.3 F5000.0 ; Move to side a little
G1 X0.4 Y20 Z0.3 F1500.0 E30 ; Draw the second line
G92 E0 ; Reset Extruder
G1 Z2.0 F3000 ; Move Z Axis up little to prevent scratching of Heat Bed
G1 X5 Y20 Z0.3 F5000.0 ; Move over to prevent blob squish

G92 E0
G92 E0
G1 F2400 E-0.8
;LAYER_COUNT:75
;LAYER:0
M107
M204 S2000
G0 F7500 X64.981 Y51.117 Z0.2
M204 S500
;TYPE:SKIRT
G1 F2400 E0
G1 F1500 X65.798 Y50.177 E0.04142
G1 X66.592 Y49.408 E0.07819
G1 X67.187 Y48.917 E0.10385
G1 X68.374 Y48.107 E0.15164
G1 X69.399 Y47.541 E0.19058
G1 X70.085 Y47.231 E0.21562
G1 X71.833 Y46.654 E0.27685
G1 X72.968 Y46.417 E0.31541
G1 X74.172 Y46.27 E0.35575
G1 X74.595 Y46.249 E0.36984
G1 X87.419 Y46.249 E0.79637
G1 X88.169 Y46.447 E0.82217
G1 X121.477 Y46.445 E1.93
G1 X123.202 Y45.15 E2.00174
G1 X123.731 Y44.835 E2.02222
G1 X125.62 Y43.877 E2.09266
G1 X127.686 Y43.401 E2.16318
G1 X131.207 Y43.4 E2.28029
G1 X132.903 Y43.802 E2.33826
G1 X133.899 Y43.405 E2.37392
G1 X138.578 Y43.406 E2.52955
G1 X140.835 Y44.009 E2.60725
G1 X142.894 Y45.205 E2.68644
G1 X144.019 Y46.037 E2.73298
G1 X144.215 Y46.263 E2.74293
G1 X145.939 Y46.286 E2.80028
G1 X147.082 Y46.415 E2.83854
G1 X147.488 Y46.489 E2.85226
G1 X148.912 Y46.875 E2.90133
G1 X150.284 Y47.395 E2.95013
G1 X150.768 Y47.629 E2.96801
G1 X151.946 Y48.301 E3.01312
G1 X152.435 Y48.637 E3.03286
G1 X153.501 Y49.507 E3.07862
G1 X154.786 Y50.825 E3.13984
G1 X155.422 Y51.661 E3.17478
G1 X156.14 Y52.796 E3.21945
G1 X156.818 Y54.197 E3.27122
G1 X157.06 Y54.842 E3.29413
G1 X157.482 Y56.43 E3.34878
G1 X157.731 Y58.286 E3.41106
G1 X157.751 Y58.984 E3.43429
G1 X157.75 Y99.935 E4.79633
G1 X157.552 Y100.696 E4.82248
G1 X157.551 Y158.138 E6.73301
G1 X157.628 Y158.512 E6.74571
G1 X157.738 Y159.642 E6.78347
G1 X157.673 Y162.331 E6.87293
G1 X157.316 Y164.289 E6.93913
G1 X156.915 Y165.526 E6.98238
G1 X156.256 Y167.006 E7.03626
G1 X155.871 Y167.675 E7.06194
G1 X154.891 Y169.048 E7.11804
G1 X154.318 Y169.705 E7.14704
G1 X153.463 Y170.538 E7.18674
G1 X152.866 Y171.032 E7.21251
G1 X151.297 Y172.082 E7.27531
G1 X150.449 Y172.522 E7.30708
G1 X148.782 Y173.174 E7.36662
G1 X148.024 Y173.385 E7.39278
G1 X146.634 Y173.646 E7.43982
G1 X145.869 Y173.721 E7.46539
G1 X145.016 Y173.751 E7.49378
G1 X107.288 Y173.749 E8.74862
G1 X106.542 Y173.552 E8.77428
G1 X77.854 Y173.551 E9.72845
G1 X77.473 Y173.629 E9.74138
G1 X76.294 Y173.741 E9.78077
G1 X73.612 Y173.667 E9.87001
G1 X71.729 Y173.323 E9.93367
G1 X70.586 Y172.96 E9.97356
G1 X69.14 Y172.326 E10.02608
G1 X68.181 Y171.773 E10.0629
G1 X66.893 Y170.847 E10.11566
G1 X66.421 Y170.439 E10.13641
G1 X65.5 Y169.506 E10.18001
G1 X64.872 Y168.745 E10.21283
G1 X63.528 Y166.831 E10.29062
G1 X62.851 Y165.242 E10.34806
G1 X62.346 Y162.585 E10.43802
G1 X62.289 Y162.011 E10.4572
G1 X62.249 Y161.028 E10.48992
G1 X62.267 Y58.534 E13.89889
G1 X62.334 Y57.533 E13.93226
G1 X62.443 Y56.805 E13.95674
G1 X62.759 Y55.445 E14.00318
G1 X63.096 Y54.437 E14.03853
G1 X63.463 Y53.576 E14.06966
G1 X64.24 Y52.162 E14.12332
G1 X64.981 Y51.117 E14.16593
M204 S2000
G0 F7500 X65.283 Y51.379
M204 S500
G1 F1500 X66.076 Y50.464 E14.2062
G1 X66.847 Y49.717 E14.24191
G1 X67.442 Y49.226 E14.26756
G1 X68.599 Y48.438 E14.31412
G1 X69.564 Y47.906 E14.35077
G1 X70.25 Y47.596 E14.37581
G1 X71.915 Y47.046 E14.43413
G1 X73.05 Y46.809 E14.4727
G1 X74.192 Y46.67 E14.51096
G1 X74.615 Y46.649 E14.52505
G1 X87.366 Y46.649 E14.94915
G1 X88.116 Y46.847 E14.97495
G1 X121.638 Y46.845 E16.08989
G1 X121.733 Y46.751 E16.09434
G1 X123.407 Y45.494 E16.16397
G1 X123.936 Y45.179 E16.18444
G1 X125.758 Y44.256 E16.25238
G1 X127.733 Y43.801 E16.31978
G1 X131.161 Y43.8 E16.4338
G1 X132.935 Y44.22 E16.49444
G1 X133.977 Y43.805 E16.53174
G1 X138.527 Y43.806 E16.68307
G1 X140.678 Y44.381 E16.75713
G1 X142.656 Y45.527 E16.83316
G1 X143.781 Y46.359 E16.8797
G1 X144.019 Y46.661 E16.89249
G1 X145.894 Y46.684 E16.95486
G1 X147.01 Y46.809 E16.99221
G1 X147.416 Y46.883 E17.00593
G1 X148.771 Y47.249 E17.05261
G1 X150.11 Y47.755 E17.10022
G1 X150.594 Y47.989 E17.1181
G1 X151.719 Y48.631 E17.16119
G1 X152.208 Y48.967 E17.18092
G1 X153.248 Y49.817 E17.22559
G1 X154.468 Y51.068 E17.28371
G1 X155.084 Y51.876 E17.31751
G1 X155.78 Y52.971 E17.36066
G1 X156.443 Y54.338 E17.41119
G1 X156.685 Y54.983 E17.43411
G1 X157.086 Y56.484 E17.48578
G1 X157.331 Y58.298 E17.54666
G1 X157.351 Y58.984 E17.56949
G1 X157.35 Y99.884 E18.92983
G1 X157.152 Y100.645 E18.95598
G1 X157.151 Y158.178 E20.86954
G1 X157.23 Y158.552 E20.88225
G1 X157.338 Y159.632 E20.91835
G1 X157.273 Y162.321 E21.00781
G1 X156.935 Y164.166 E21.0702
G1 X156.534 Y165.403 E21.11345
G1 X155.909 Y166.806 E21.16453
G1 X155.524 Y167.475 E21.19021
G1 X154.566 Y168.815 E21.24499
G1 X154.039 Y169.418 E21.27163
G1 X153.184 Y170.251 E21.31133
G1 X152.611 Y170.724 E21.33604
G1 X151.112 Y171.727 E21.39603
G1 X150.303 Y172.149 E21.42638
G1 X148.636 Y172.801 E21.48592
G1 X147.918 Y172.999 E21.51069
G1 X146.595 Y173.248 E21.55546
G1 X145.855 Y173.321 E21.5802
G1 X145.016 Y173.351 E21.60812
G1 X107.341 Y173.349 E22.86119
G1 X106.595 Y173.152 E22.88686
G1 X77.815 Y173.151 E23.84408
G1 X77.434 Y173.231 E23.85703
G1 X76.305 Y173.341 E23.89476
G1 X73.623 Y173.267 E23.984
G1 X71.85 Y172.942 E24.04395
G1 X70.746 Y172.593 E24.08246
G1 X69.34 Y171.979 E24.13349
G1 X68.381 Y171.426 E24.17031
G1 X67.155 Y170.544 E24.22054
G1 X66.683 Y170.136 E24.24129
G1 X65.809 Y169.251 E24.28266
G1 X65.181 Y168.49 E24.31548
G1 X63.88 Y166.637 E24.39078
G1 X63.236 Y165.125 E24.44544
G1 X62.744 Y162.545 E24.5328
G1 X62.689 Y161.994 E24.55122
G1 X62.649 Y161.028 E24.58338
G1 X62.666 Y58.56 E27.99148
G1 X62.73 Y57.592 E28.02374
G1 X62.833 Y56.896 E28.04714
G1 X63.149 Y55.536 E28.09358
G1 X63.464 Y54.593 E28.12665
G1 X63.814 Y53.769 E28.15643
G1 X64.591 Y52.355 E28.21009
G1 X65.283 Y51.379 E28.24988
M204 S2000
G0 F7500 X65.586 Y51.641
M204 S500
G1 F1500 X66.355 Y50.751 E28.289
G1 X67.102 Y50.026 E28.32363
G1 X67.697 Y49.535 E28.34928
G1 X68.792 Y48.788 E28.39337
G1 X69.729 Y48.271 E28.42896
G1 X70.415 Y47.961 E28.454
G1 X71.997 Y47.438 E28.50942
G1 X73.132 Y47.201 E28.54799
G1 X74.212 Y47.07 E28.58417
G1 X74.635 Y47.049 E28.59826
G1 X87.313 Y47.049 E29.01993
G1 X88.063 Y47.247 E29.04573
G1 X121.818 Y47.245 E30.16842
G1 X121.973 Y47.071 E30.17617
G1 X123.612 Y45.838 E30.24439
G1 X124.141 Y45.523 E30.26487
G1 X125.895 Y44.635 E30.33026
G1 X127.78 Y44.201 E30.39459
G1 X131.117 Y44.2 E30.50558
G1 X132.791 Y44.593 E30.56277
G1 X132.944 Y44.648 E30.56818
G1 X134.055 Y44.205 E30.60796
G1 X138.476 Y44.206 E30.75501
G1 X140.523 Y44.753 E30.82548
G1 X142.418 Y45.849 E30.89829
G1 X143.5 Y46.649 E30.94304
G1 X143.822 Y47.059 E30.96038
G1 X145.85 Y47.082 E31.02784
G1 X146.938 Y47.203 E31.06425
G1 X147.344 Y47.277 E31.07798
G1 X148.666 Y47.635 E31.12353
G1 X149.936 Y48.115 E31.16869
G1 X150.42 Y48.349 E31.18657
G1 X151.492 Y48.961 E31.22762
G1 X151.981 Y49.297 E31.24736
G1 X152.995 Y50.127 E31.29094
G1 X154.15 Y51.311 E31.34595
G1 X154.746 Y52.091 E31.3786
G1 X155.442 Y53.186 E31.42176
G1 X156.068 Y54.479 E31.46954
G1 X156.31 Y55.124 E31.49245
G1 X156.699 Y56.587 E31.5428
G1 X156.931 Y58.31 E31.60063
G1 X156.951 Y58.984 E31.62305
G1 X156.95 Y99.833 E32.9817
G1 X156.752 Y100.594 E33.00785
G1 X156.751 Y158.223 E34.9246
G1 X156.832 Y158.593 E34.9372
G1 X156.938 Y159.622 E34.9716
G1 X156.873 Y162.311 E35.06106
G1 X156.554 Y164.043 E35.11964
G1 X156.153 Y165.28 E35.16289
G1 X155.562 Y166.606 E35.21117
G1 X155.177 Y167.275 E35.23685
G1 X154.264 Y168.552 E35.28906
G1 X153.759 Y169.132 E35.31464
G1 X152.929 Y169.943 E35.35323
G1 X152.356 Y170.416 E35.37795
G1 X150.927 Y171.372 E35.43513
G1 X150.118 Y171.794 E35.46548
G1 X148.529 Y172.416 E35.52223
G1 X147.843 Y172.606 E35.54591
G1 X146.556 Y172.85 E35.58948
G1 X145.84 Y172.921 E35.61341
G1 X145.016 Y172.951 E35.64083
G1 X107.394 Y172.949 E36.89215
G1 X106.648 Y172.752 E36.91781
G1 X77.771 Y172.751 E37.87826
G1 X77.394 Y172.833 E37.89109
G1 X76.315 Y172.941 E37.92716
G1 X73.694 Y172.873 E38.01437
G1 X71.97 Y172.56 E38.07264
G1 X70.906 Y172.226 E38.10973
G1 X69.54 Y171.632 E38.15928
G1 X68.581 Y171.079 E38.1961
G1 X67.417 Y170.241 E38.2438
G1 X66.945 Y169.833 E38.26455
G1 X66.118 Y168.996 E38.30369
G1 X65.49 Y168.235 E38.3365
G1 X64.232 Y166.443 E38.40933
G1 X63.621 Y165.008 E38.4612
G1 X63.142 Y162.505 E38.54596
G1 X63.089 Y161.977 E38.56361
G1 X63.049 Y161.028 E38.5952
G1 X63.065 Y58.586 E42.00244
G1 X63.126 Y57.65 E42.03364
G1 X63.223 Y56.987 E42.05592
G1 X63.539 Y55.627 E42.10236
G1 X63.832 Y54.749 E42.13315
G1 X64.165 Y53.962 E42.16157
G1 X64.942 Y52.548 E42.21523
G1 X65.586 Y51.641 E42.25223
M204 S2000
G0 F7500 X65.889 Y51.903
M204 S500
G1 F1500 X66.658 Y51.013 E42.29135
G1 X67.357 Y50.335 E42.32374
G1 X67.952 Y49.844 E42.3494
G1 X68.986 Y49.138 E42.39104
G1 X69.894 Y48.636 E42.42555
G1 X70.58 Y48.326 E42.45059
G1 X72.079 Y47.83 E42.5031
G1 X73.214 Y47.593 E42.54167
G1 X74.232 Y47.47 E42.57577
G1 X74.655 Y47.449 E42.58986
G1 X87.26 Y47.449 E43.0091
G1 X88.01 Y47.647 E43.0349
G1 X122.012 Y47.645 E44.16581
G1 X122.214 Y47.39 E44.17663
G1 X123.817 Y46.182 E44.24339
G1 X124.346 Y45.867 E44.26387
G1 X126.032 Y45.014 E44.32671
G1 X127.827 Y44.601 E44.38798
G1 X131.069 Y44.6 E44.49581
G1 X132.656 Y44.97 E44.55001
G1 X132.952 Y45.076 E44.56046
G1 X134.133 Y44.605 E44.60275
G1 X138.425 Y44.606 E44.7455
G1 X140.368 Y45.125 E44.81239
G1 X142.18 Y46.171 E44.88198
G1 X143.219 Y46.939 E44.92495
G1 X143.626 Y47.457 E44.94687
G1 X145.845 Y47.482 E45.02067
G1 X146.866 Y47.597 E45.05485
G1 X147.272 Y47.671 E45.06857
G1 X148.561 Y48.021 E45.113
G1 X149.762 Y48.475 E45.1557
G1 X150.222 Y48.697 E45.17269
G1 X151.265 Y49.291 E45.21261
G1 X151.754 Y49.627 E45.23235
G1 X152.741 Y50.436 E45.27479
G1 X153.832 Y51.554 E45.32675
G1 X154.408 Y52.306 E45.35825
G1 X155.104 Y53.401 E45.40141
G1 X155.693 Y54.62 E45.44644
G1 X155.935 Y55.265 E45.46935
G1 X156.303 Y56.641 E45.51672
G1 X156.531 Y58.322 E45.57315
G1 X156.551 Y58.984 E45.59518
G1 X156.55 Y99.782 E46.95212
G1 X156.352 Y100.543 E46.97828
G1 X156.351 Y158.267 E48.89818
G1 X156.434 Y158.635 E48.91073
G1 X156.538 Y159.613 E48.94344
G1 X156.479 Y162.239 E49.03081
G1 X156.173 Y163.92 E49.08764
G1 X155.772 Y165.157 E49.13089
G1 X155.215 Y166.406 E49.17637
G1 X154.83 Y167.075 E49.20204
G1 X153.962 Y168.29 E49.25171
G1 X153.479 Y168.846 E49.2762
G1 X152.674 Y169.635 E49.31369
G1 X152.101 Y170.108 E49.33841
G1 X150.742 Y171.017 E49.39279
G1 X149.933 Y171.439 E49.42313
G1 X148.422 Y172.031 E49.47711
G1 X147.768 Y172.213 E49.49969
G1 X146.516 Y172.452 E49.54208
G1 X145.825 Y172.521 E49.56518
G1 X145.016 Y172.551 E49.59211
G1 X107.447 Y172.549 E50.84166
G1 X106.701 Y172.352 E50.86732
G1 X77.729 Y172.351 E51.83093
G1 X77.353 Y172.435 E51.84374
G1 X76.325 Y172.541 E51.87812
G1 X73.765 Y172.479 E51.96329
G1 X72.09 Y172.178 E52.01989
G1 X71.026 Y171.844 E52.05698
G1 X69.74 Y171.285 E52.10362
G1 X68.781 Y170.732 E52.14044
G1 X67.679 Y169.938 E52.18562
G1 X67.207 Y169.53 E52.20637
G1 X66.427 Y168.741 E52.24327
G1 X65.799 Y167.98 E52.27609
G1 X64.584 Y166.249 E52.34643
G1 X64.006 Y164.891 E52.39551
G1 X63.54 Y162.465 E52.47768
G1 X63.489 Y161.96 E52.49456
G1 X63.449 Y161.028 E52.52559
G1 X63.464 Y58.612 E55.93196
G1 X63.522 Y57.707 E55.96212
G1 X63.613 Y57.078 E55.98326
G1 X63.929 Y55.718 E56.0297
G1 X64.201 Y54.904 E56.05824
G1 X64.516 Y54.155 E56.08527
G1 X65.293 Y52.741 E56.13893
G1 X65.889 Y51.903 E56.17313
M204 S2000
G0 F7500 X66.192 Y52.165
M204 S500
G1 F1500 X66.961 Y51.275 E56.21225
G1 X67.612 Y50.644 E56.24241
G1 X68.207 Y50.153 E56.26806
G1 X69.211 Y49.469 E56.30847
G1 X70.059 Y49.001 E56.34069
G1 X70.745 Y48.691 E56.36572
G1 X72.161 Y48.222 E56.41534
G1 X73.296 Y47.985 E56.4539
G1 X74.252 Y47.87 E56.48593
G1 X74.675 Y47.849 E56.50001
G1 X87.207 Y47.849 E56.91683
G1 X87.957 Y48.047 E56.94263
G1 X122.205 Y48.045 E58.08172
G1 X122.496 Y47.678 E58.0973
G1 X124.022 Y46.526 E58.16089
G1 X124.551 Y46.211 E58.18137
G1 X126.167 Y45.394 E58.2416
G1 X127.874 Y45.001 E58.29986
G1 X131.022 Y45 E58.40456
G1 X132.521 Y45.347 E58.45574
G1 X132.96 Y45.504 E58.47124
G1 X134.211 Y45.005 E58.51604
G1 X138.374 Y45.006 E58.6545
G1 X140.21 Y45.496 E58.7177
G1 X141.942 Y46.493 E58.78417
G1 X142.94 Y47.231 E58.82546
G1 X143.447 Y47.875 E58.85272
G1 X143.654 Y47.855 E58.85963
G1 X145.801 Y47.88 E58.93105
G1 X146.794 Y47.991 E58.96428
G1 X147.2 Y48.065 E58.97801
G1 X148.42 Y48.395 E59.02004
G1 X149.588 Y48.835 E59.06156
G1 X150.024 Y49.045 E59.07765
G1 X151.038 Y49.621 E59.11644
G1 X151.527 Y49.957 E59.13617
G1 X152.487 Y50.745 E59.17748
G1 X153.515 Y51.798 E59.22643
G1 X154.07 Y52.521 E59.25674
G1 X154.766 Y53.616 E59.2999
G1 X155.318 Y54.761 E59.34217
G1 X155.56 Y55.406 E59.36509
G1 X155.916 Y56.744 E59.41114
G1 X156.131 Y58.334 E59.4645
G1 X156.151 Y58.984 E59.48613
G1 X156.15 Y99.731 E60.84138
G1 X155.952 Y100.492 E60.86754
G1 X155.951 Y158.315 E62.79074
G1 X156.036 Y158.679 E62.80317
G1 X156.138 Y159.605 E62.83415
G1 X156.085 Y162.168 E62.91942
G1 X155.792 Y163.797 E62.97447
G1 X155.391 Y165.034 E63.01772
G1 X154.868 Y166.206 E63.06041
G1 X154.483 Y166.875 E63.08608
G1 X153.659 Y168.028 E63.13321
G1 X153.199 Y168.56 E63.15661
G1 X152.394 Y169.349 E63.1941
G1 X151.878 Y169.776 E63.21637
G1 X150.557 Y170.662 E63.26928
G1 X149.748 Y171.084 E63.29962
G1 X148.314 Y171.646 E63.35085
G1 X147.692 Y171.82 E63.37233
G1 X146.476 Y172.054 E63.41352
G1 X145.81 Y172.121 E63.43578
G1 X145.016 Y172.151 E63.46221
G1 X107.5 Y172.149 E64.71
G1 X106.754 Y171.952 E64.73566
G1 X77.681 Y171.951 E65.70263
G1 X77.311 Y172.037 E65.71527
G1 X76.334 Y172.141 E65.74795
G1 X73.835 Y172.085 E65.83108
G1 X72.21 Y171.796 E65.88598
G1 X71.146 Y171.462 E65.92307
G1 X69.94 Y170.938 E65.9668
G1 X68.981 Y170.385 E66.00362
G1 X67.941 Y169.635 E66.04627
G1 X67.469 Y169.227 E66.06702
G1 X66.736 Y168.486 E66.10169
G1 X66.108 Y167.725 E66.13451
G1 X64.936 Y166.055 E66.20236
G1 X64.391 Y164.774 E66.24867
G1 X63.938 Y162.424 E66.32827
G1 X63.889 Y161.943 E66.34435
G1 X63.849 Y161.028 E66.37481
G1 X63.863 Y58.637 E69.78035
G1 X63.918 Y57.764 E69.80944
G1 X64.003 Y57.169 E69.82943
G1 X64.319 Y55.809 E69.87587
G1 X64.57 Y55.058 E69.90221
G1 X64.867 Y54.348 E69.9278
G1 X65.644 Y52.934 E69.98147
G1 X66.192 Y52.165 E70.01287
M204 S2000
G0 F7500 X66.495 Y52.427
M204 S500
G1 F1500 X67.264 Y51.537 E70.05199
G1 X67.867 Y50.953 E70.07991
G1 X68.462 Y50.462 E70.10557
G1 X69.405 Y49.819 E70.14353
G1 X70.224 Y49.366 E70.17466
G1 X70.91 Y49.056 E70.1997
G1 X72.243 Y48.614 E70.24641
G1 X73.378 Y48.377 E70.28498
G1 X74.272 Y48.27 E70.31492
G1 X74.695 Y48.249 E70.32901
G1 X87.154 Y48.249 E70.7434
G1 X87.904 Y48.447 E70.7692
G1 X122.398 Y48.445 E71.91647
G1 X122.776 Y47.968 E71.93671
G1 X124.227 Y46.87 E71.99723
G1 X124.756 Y46.555 E72.01771
G1 X126.302 Y45.774 E72.07532
G1 X127.921 Y45.401 E72.13058
G1 X130.975 Y45.4 E72.23216
G1 X132.386 Y45.724 E72.28031
G1 X132.966 Y45.932 E72.3008
G1 X134.286 Y45.405 E72.34807
G1 X138.323 Y45.406 E72.48235
G1 X140.054 Y45.868 E72.54193
G1 X141.704 Y46.815 E72.60521
G1 X142.66 Y47.522 E72.64476
G1 X143.271 Y48.297 E72.67758
G1 X143.65 Y48.255 E72.69026
G1 X145.757 Y48.278 E72.76035
G1 X146.722 Y48.385 E72.79264
G1 X147.128 Y48.459 E72.80637
G1 X148.315 Y48.781 E72.84727
G1 X149.415 Y49.196 E72.88638
G1 X149.826 Y49.393 E72.90154
G1 X150.84 Y49.969 E72.94032
G1 X151.273 Y50.266 E72.95779
G1 X152.233 Y51.054 E72.9991
G1 X153.198 Y52.042 E73.04503
G1 X153.732 Y52.736 E73.07415
G1 X154.428 Y53.831 E73.11731
