;FLAVOR:Marlin
;TIME:8161
;Filament used: 6.1927m
;Layer height: 0.2
;MINX:65.313
;MINY:49.312
;MINZ:0.2
;MAXX:154.688
;MAXY:170.688
;MAXZ:5.6
;Generated with Cura_SteamEngine 5.4.0
M82 ;absolute extrusion mode
; Ender 3 S1 Start G-code
; M413 S0 ; Disable power loss recovery
G92 E0 ; Reset Extruder

; Prep surfaces before auto home for better accuracy
M140 S60
M104 S200

G28 O ; Home all untrusted axes
G1 Z10.0 F3000 ; Move Z Axis up little to prevent scratching of Heat Bed
G1 X0 Y0

M190 S60
M109 S200

G1 X0.1 Y20 Z0.3 F5000.0 ; Move to start position
G1 X0.1 Y200.0 Z0.3 F1500.0 E15 ; Draw the first line
G1 X0.4 Y200.0 Z0.3 F5000.0 ; Move to side a little
G1 X0.4 Y20 Z0.3 F1500.0 E30 ; Draw the second line
G92 E0 ; Reset Extruder
G1 Z2.0 F3000 ; Move Z Axis up little to prevent scratching of Heat Bed
G1 X5 Y20 Z0.3 F5000.0 ; Move over to prevent blob squish

G92 E0
G92 E0
G1 F2400 E-0.8
;LAYER_COUNT:28
;LAYER:0
M107
M204 S2000
G0 F7500 X67.557 Y54.408 Z0.2
M204 S500
;TYPE:SKIRT
G1 F2400 E0
G1 F1500 X68.887 Y53.443 E0.05465
G1 X69.228 Y53.248 E0.06772
G1 X69.973 Y52.163 E0.11149
G1 X70.865 Y51.152 E0.15634
G1 X72.62 Y50.033 E0.22556
G1 X74.701 Y49.313 E0.2988
G1 X144.943 Y49.312 E2.63506
G1 X146.826 Y49.826 E2.69998
G1 X147.887 Y50.257 E2.73807
G1 X149.542 Y51.61 E2.80917
G1 X150.398 Y52.509 E2.85046
G1 X150.785 Y53.242 E2.87803
G1 X151.655 Y53.833 E2.91301
G1 X152.847 Y54.854 E2.96521
G1 X153.957 Y56.589 E3.03372
G1 X154.687 Y58.701 E3.10804
G1 X154.688 Y160.943 E6.50862
G1 X154.174 Y162.826 E6.57354
G1 X153.743 Y163.887 E6.61163
G1 X152.39 Y165.542 E6.68273
G1 X151.491 Y166.398 E6.72402
G1 X150.759 Y166.784 E6.75154
G1 X150.528 Y167.244 E6.76866
G1 X149.303 Y168.728 E6.83266
G1 X147.452 Y169.934 E6.90614
G1 X145.322 Y170.688 E6.9813
G1 X75.057 Y170.688 E9.31832
G1 X73.175 Y170.174 E9.38321
G1 X72.111 Y169.742 E9.4214
G1 X70.412 Y168.348 E9.4945
G1 X69.601 Y167.491 E9.53374
G1 X69.217 Y166.757 E9.56129
G1 X68.318 Y166.146 E9.59745
G1 X67.154 Y165.151 E9.64838
G1 X66.037 Y163.393 E9.71765
G1 X65.313 Y161.299 E9.79135
G1 X65.314 Y125.145 E10.99383
G1 X65.778 Y123.257 E11.0585
G1 X66.2 Y122.443 E11.08899
G1 X66.2 Y119.58 E11.18422
G1 X65.674 Y118.708 E11.21809
G1 X65.39 Y116.979 E11.27636
G1 X65.314 Y59.069 E13.20246
G1 X65.812 Y57.186 E13.26724
G1 X66.187 Y56.243 E13.301
G1 X67.557 Y54.408 E13.37716
M204 S2000
G0 F7500 X67.841 Y54.696
M204 S500
G1 F1500 X69.122 Y53.767 E13.42979
G1 X69.506 Y53.55 E13.44446
G1 X70.273 Y52.428 E13.48967
G1 X71.129 Y51.458 E13.53269
G1 X72.794 Y50.396 E13.59838
G1 X74.768 Y49.713 E13.66785
G1 X144.889 Y49.712 E16.00009
G1 X146.675 Y50.197 E16.06164
G1 X147.682 Y50.606 E16.09779
G1 X149.252 Y51.886 E16.16516
G1 X150.07 Y52.745 E16.20462
G1 X150.478 Y53.518 E16.23369
G1 X151.395 Y54.137 E16.27049
G1 X152.541 Y55.119 E16.32068
G1 X153.595 Y56.766 E16.38572
G1 X154.287 Y58.768 E16.45617
G1 X154.288 Y160.889 E19.85273
G1 X153.803 Y162.675 E19.91428
G1 X153.394 Y163.682 E19.95043
G1 X152.114 Y165.252 E20.01781
G1 X151.255 Y166.07 E20.05726
G1 X150.459 Y166.49 E20.08719
G1 X150.19 Y167.026 E20.10714
G1 X149.033 Y168.427 E20.16757
G1 X147.274 Y169.573 E20.2374
G1 X145.254 Y170.288 E20.30867
G1 X75.111 Y170.288 E22.64163
G1 X73.326 Y169.803 E22.70316
G1 X72.317 Y169.393 E22.73938
G1 X70.703 Y168.073 E22.80873
G1 X69.928 Y167.254 E22.84623
G1 X69.524 Y166.482 E22.87521
G1 X68.578 Y165.842 E22.9132
G1 X67.461 Y164.887 E22.96208
G1 X66.399 Y163.216 E23.02793
G1 X65.713 Y161.232 E23.09775
G1 X65.714 Y125.191 E24.29648
G1 X66.154 Y123.4 E24.35782
G1 X66.6 Y122.54 E24.39004
G1 X66.6 Y119.469 E24.49219
G1 X66.057 Y118.568 E24.52717
G1 X65.785 Y116.914 E24.58293
G1 X65.714 Y59.122 E26.5051
G1 X66.184 Y57.334 E26.56659
G1 X66.54 Y56.44 E26.59859
G1 X67.841 Y54.696 E26.67096
M204 S2000
G0 F7500 X68.125 Y54.984
M204 S500
G1 F1500 X69.357 Y54.091 E26.72157
G1 X69.784 Y53.852 E26.73784
G1 X70.573 Y52.693 E26.78448
G1 X71.393 Y51.764 E26.82569
G1 X72.968 Y50.759 E26.88783
G1 X74.835 Y50.113 E26.95354
G1 X144.837 Y50.112 E29.28182
G1 X146.524 Y50.568 E29.33994
G1 X147.479 Y50.956 E29.37422
G1 X148.962 Y52.162 E29.4378
G1 X149.742 Y52.981 E29.47542
G1 X150.171 Y53.793 E29.50596
G1 X151.135 Y54.441 E29.5446
G1 X152.235 Y55.384 E29.59278
G1 X153.233 Y56.943 E29.65435
G1 X153.887 Y58.835 E29.72093
G1 X153.888 Y160.837 E33.11353
G1 X153.432 Y162.524 E33.17166
G1 X153.044 Y163.479 E33.20594
G1 X151.838 Y164.962 E33.26952
G1 X151.019 Y165.742 E33.30714
G1 X150.159 Y166.196 E33.33948
G1 X149.852 Y166.808 E33.36225
G1 X148.763 Y168.126 E33.41912
G1 X147.096 Y169.212 E33.48529
G1 X145.186 Y169.888 E33.55268
G1 X75.163 Y169.888 E35.88165
G1 X73.476 Y169.432 E35.93978
G1 X72.523 Y169.045 E35.97399
G1 X70.994 Y167.798 E36.03961
G1 X70.256 Y167.018 E36.07532
G1 X69.831 Y166.207 E36.10578
G1 X68.838 Y165.538 E36.1456
G1 X67.768 Y164.623 E36.19243
G1 X66.761 Y163.039 E36.25486
G1 X66.113 Y161.165 E36.32081
G1 X66.114 Y125.238 E37.51574
G1 X66.531 Y123.542 E37.57383
G1 X67 Y122.637 E37.60774
G1 X67 Y119.356 E37.71686
G1 X66.439 Y118.426 E37.75299
G1 X66.18 Y116.849 E37.80614
G1 X66.114 Y59.173 E39.72445
G1 X66.556 Y57.482 E39.78259
G1 X66.893 Y56.637 E39.81284
G1 X68.125 Y54.984 E39.88141
M204 S2000
G0 F7500 X68.409 Y55.272
M204 S500
G1 F1500 X69.592 Y54.415 E39.93
G1 X70.061 Y54.156 E39.94782
G1 X70.873 Y52.958 E39.99595
G1 X71.657 Y52.07 E40.03535
G1 X73.142 Y51.122 E40.09395
G1 X74.902 Y50.513 E40.15589
G1 X144.785 Y50.512 E42.48021
G1 X146.374 Y50.939 E42.53494
G1 X147.273 Y51.304 E42.56721
G1 X148.672 Y52.438 E42.62711
G1 X149.414 Y53.217 E42.66289
G1 X149.863 Y54.068 E42.69489
G1 X150.875 Y54.745 E42.73539
G1 X151.929 Y55.649 E42.78157
G1 X152.871 Y57.12 E42.83967
G1 X153.487 Y58.902 E42.90238
G1 X153.488 Y160.785 E46.29102
G1 X153.061 Y162.374 E46.34575
G1 X152.696 Y163.273 E46.37802
G1 X151.562 Y164.672 E46.43792
G1 X150.783 Y165.414 E46.4737
G1 X149.86 Y165.901 E46.50841
G1 X149.515 Y166.588 E46.53398
G1 X148.493 Y167.825 E46.58735
G1 X146.919 Y168.85 E46.64982
G1 X145.117 Y169.488 E46.7134
G1 X75.215 Y169.488 E49.03835
G1 X73.626 Y169.061 E49.09308
G1 X72.727 Y168.696 E49.12535
G1 X71.285 Y167.523 E49.18717
G1 X70.584 Y166.782 E49.2211
G1 X70.138 Y165.931 E49.25305
G1 X69.098 Y165.234 E49.29469
G1 X68.075 Y164.359 E49.33947
G1 X67.123 Y162.862 E49.39847
G1 X66.513 Y161.098 E49.46055
G1 X66.514 Y125.284 E50.65173
G1 X66.907 Y123.685 E50.7065
G1 X67.4 Y122.734 E50.74213
G1 X67.4 Y119.245 E50.85817
G1 X66.822 Y118.286 E50.89541
G1 X66.575 Y116.784 E50.94604
G1 X66.514 Y59.224 E52.86049
G1 X66.943 Y57.583 E52.91691
G1 X67.244 Y56.835 E52.94373
G1 X68.409 Y55.272 E53.00856
M204 S2000
G0 F7500 X68.695 Y55.558
M204 S500
G1 F1500 X69.785 Y54.765 E53.0534
G1 X70.361 Y54.447 E53.07528
G1 X70.425 Y54.322 E53.07995
G1 X71.203 Y53.184 E53.1258
G1 X71.919 Y52.377 E53.16168
G1 X73.316 Y51.485 E53.21681
G1 X74.969 Y50.913 E53.27499
G1 X144.734 Y50.912 E55.59538
G1 X146.224 Y51.31 E55.64668
G1 X147.069 Y51.653 E55.67701
G1 X148.382 Y52.714 E55.73316
G1 X149.086 Y53.453 E55.7671
G1 X149.567 Y54.365 E55.8014
G1 X149.669 Y54.417 E55.8052
G1 X150.615 Y55.049 E55.84304
G1 X151.623 Y55.914 E55.88722
G1 X152.509 Y57.297 E55.94185
G1 X153.087 Y58.969 E56.00069
G1 X153.088 Y160.734 E59.38541
G1 X152.69 Y162.224 E59.4367
G1 X152.347 Y163.069 E59.46704
G1 X151.286 Y164.382 E59.52318
G1 X150.547 Y165.086 E59.55713
G1 X149.561 Y165.606 E59.59421
G1 X149.178 Y166.368 E59.62257
G1 X148.223 Y167.524 E59.67244
G1 X146.741 Y168.489 E59.73126
G1 X145.049 Y169.088 E59.79096
G1 X75.266 Y169.088 E62.11195
G1 X73.776 Y168.69 E62.16325
G1 X72.933 Y168.348 E62.19351
G1 X71.576 Y167.248 E62.25161
G1 X70.912 Y166.546 E62.28375
G1 X70.445 Y165.654 E62.31723
G1 X69.358 Y164.93 E62.36067
G1 X68.38 Y164.093 E62.40349
G1 X67.486 Y162.688 E62.45888
G1 X66.913 Y161.031 E62.51719
G1 X66.914 Y125.33 E63.70461
G1 X67.283 Y123.828 E63.75605
G1 X67.8 Y122.831 E63.79341
G1 X67.8 Y119.132 E63.91644
G1 X67.204 Y118.144 E63.95481
G1 X66.97 Y116.719 E64.00284
G1 X66.914 Y59.274 E65.91347
G1 X67.314 Y57.732 E65.96646
G1 X67.595 Y57.034 E65.99148
G1 X68.695 Y55.558 E66.05271
M204 S2000
G0 F7500 X68.979 Y55.846
M204 S500
G1 F1500 X70.02 Y55.089 E66.09552
G1 X70.667 Y54.735 E66.12005
G1 X70.755 Y54.548 E66.12692
G1 X71.533 Y53.41 E66.17277
G1 X72.18 Y52.685 E66.20509
G1 X73.49 Y51.848 E66.2568
G1 X75.036 Y51.313 E66.31121
G1 X144.681 Y51.312 E68.62761
G1 X146.074 Y51.681 E68.67554
G1 X146.863 Y52.001 E68.70386
G1 X148.092 Y52.99 E68.75633
G1 X148.758 Y53.689 E68.78844
G1 X149.274 Y54.668 E68.82525
G1 X149.447 Y54.75 E68.83161
G1 X150.393 Y55.382 E68.86945
G1 X151.317 Y56.178 E68.91002
G1 X152.147 Y57.474 E68.96121
G1 X152.687 Y59.036 E69.01617
G1 X152.688 Y160.681 E72.3969
G1 X152.319 Y162.074 E72.44483
G1 X151.999 Y162.863 E72.47315
G1 X151.01 Y164.092 E72.52562
G1 X150.311 Y164.758 E72.55773
G1 X149.262 Y165.311 E72.59717
G1 X148.841 Y166.148 E72.62833
G1 X147.953 Y167.223 E72.67471
G1 X146.563 Y168.128 E72.72988
G1 X144.981 Y168.688 E72.78569
G1 X75.319 Y168.688 E75.10266
G1 X73.926 Y168.319 E75.15059
G1 X73.137 Y167.999 E75.17891
G1 X71.867 Y166.973 E75.23321
G1 X71.24 Y166.31 E75.26356
G1 X70.727 Y165.33 E75.30035
G1 X70.557 Y165.248 E75.30663
G1 X69.58 Y164.597 E75.34568
G1 X68.685 Y163.828 E75.38492
G1 X67.849 Y162.514 E75.43672
G1 X67.313 Y160.964 E75.49127
G1 X67.314 Y125.376 E76.67493
G1 X67.659 Y123.971 E76.72305
G1 X68.2 Y122.928 E76.76213
G1 X68.2 Y119.021 E76.89208
G1 X67.587 Y118.004 E76.93157
G1 X67.365 Y116.654 E76.97708
G1 X67.314 Y59.324 E78.88388
G1 X67.685 Y57.882 E78.93341
G1 X67.947 Y57.232 E78.95671
G1 X68.979 Y55.846 E79.01419
M204 S2000
G0 F7500 X69.264 Y56.133
M204 S500
G1 F1500 X70.212 Y55.44 E79.05325
G1 X70.979 Y55.02 E79.08233
G1 X71.086 Y54.773 E79.09128
G1 X71.832 Y53.676 E79.13541
G1 X72.443 Y52.991 E79.16594
G1 X73.664 Y52.211 E79.21413
G1 X75.103 Y51.713 E79.26477
G1 X144.628 Y51.712 E81.57718
G1 X145.924 Y52.052 E81.62175
G1 X146.657 Y52.349 E81.64805
G1 X147.841 Y53.302 E81.6986
G1 X148.43 Y53.924 E81.7271
G1 X148.987 Y54.981 E81.76683
G1 X149.225 Y55.083 E81.77545
G1 X150.171 Y55.715 E81.81329
G1 X151.011 Y56.442 E81.85024
G1 X151.785 Y57.651 E81.89798
G1 X152.287 Y59.103 E81.94908
G1 X152.288 Y160.628 E85.32581
G1 X151.948 Y161.924 E85.37038
G1 X151.651 Y162.657 E85.39668
G1 X150.698 Y163.841 E85.44724
G1 X150.076 Y164.43 E85.47573
G1 X148.962 Y165.017 E85.51761
G1 X148.504 Y165.928 E85.55152
G1 X147.683 Y166.922 E85.5944
G1 X146.385 Y167.767 E85.64591
G1 X144.913 Y168.288 E85.69785
G1 X75.372 Y168.288 E88.01079
G1 X74.076 Y167.948 E88.05536
G1 X73.343 Y167.651 E88.08166
G1 X72.158 Y166.698 E88.13224
G1 X71.568 Y166.074 E88.1608
G1 X71.017 Y165.022 E88.2003
G1 X70.779 Y164.915 E88.20898
G1 X69.802 Y164.264 E88.24803
G1 X68.992 Y163.565 E88.28361
G1 X68.211 Y162.337 E88.33202
G1 X67.713 Y160.897 E88.38269
G1 X67.714 Y125.422 E89.5626
G1 X68.035 Y124.114 E89.60739
G1 X68.6 Y123.025 E89.6482
G1 X68.6 Y118.91 E89.78506
G1 X67.97 Y117.864 E89.82568
G1 X67.76 Y116.589 E89.86865
G1 X67.714 Y59.376 E91.77157
G1 X68.056 Y58.032 E91.81769
G1 X68.299 Y57.43 E91.83929
G1 X69.264 Y56.133 E91.89305
M204 S2000
G0 F7500 X69.55 Y56.419
M204 S500
G1 F1500 X70.404 Y55.791 E91.92831
G1 X71.301 Y55.3 E91.96232
G1 X71.417 Y54.997 E91.97311
G1 X72.131 Y53.942 E92.01548
G1 X72.706 Y53.297 E92.04422
G1 X73.838 Y52.574 E92.0889
G1 X75.17 Y52.113 E92.13578
G1 X144.577 Y52.112 E94.44427
G1 X145.774 Y52.423 E94.4854
G1 X146.453 Y52.698 E94.50977
G1 X147.551 Y53.577 E94.55655
G1 X148.1 Y54.157 E94.58311
G1 X148.703 Y55.301 E94.62612
G1 X149.004 Y55.416 E94.63684
G1 X149.909 Y56.017 E94.67297
G1 X150.704 Y56.705 E94.70794
G1 X151.423 Y57.828 E94.75229
G1 X151.887 Y59.17 E94.79952
G1 X151.888 Y160.577 E98.17233
G1 X151.577 Y161.774 E98.21346
G1 X151.302 Y162.453 E98.23783
G1 X150.423 Y163.551 E98.28461
G1 X149.843 Y164.1 E98.31117
G1 X148.663 Y164.722 E98.35554
G1 X148.167 Y165.708 E98.39225
G1 X147.413 Y166.621 E98.43163
G1 X146.207 Y167.406 E98.47949
G1 X144.845 Y167.888 E98.52754
G1 X75.423 Y167.888 E100.83653
G1 X74.226 Y167.577 E100.87766
G1 X73.547 Y167.302 E100.90203
G1 X72.449 Y166.423 E100.94881
G1 X71.896 Y165.838 E100.97558
G1 X71.304 Y164.708 E101.01801
G1 X71.001 Y164.582 E101.02893
G1 X70.024 Y163.931 E101.06798
G1 X69.3 Y163.303 E101.09985
G1 X68.573 Y162.16 E101.14491
G1 X68.113 Y160.83 E101.19171
G1 X68.114 Y125.468 E102.36786
G1 X68.411 Y124.257 E102.40933
G1 X68.932 Y123.248 E102.4471
G1 X69 Y123.146 E102.45118
G1 X69 Y118.799 E102.59576
G1 X68.353 Y117.724 E102.63749
G1 X68.155 Y116.524 E102.67794
G1 X68.114 Y59.427 E104.577
G1 X68.427 Y58.182 E104.61969
G1 X68.651 Y57.628 E104.63957
G1 X69.55 Y56.419 E104.68968
M204 S2000
G0 F7500 X69.837 Y56.704
M204 S500
G1 F1500 X70.596 Y56.142 E104.72109
G1 X71.623 Y55.58 E104.76003
G1 X71.774 Y55.182 E104.77419
G1 X72.43 Y54.208 E104.81324
G1 X72.969 Y53.603 E104.84019
G1 X74.012 Y52.937 E104.88135
G1 X75.237 Y52.513 E104.92447
G1 X144.527 Y52.512 E107.22906
G1 X145.624 Y52.794 E107.26674
G1 X146.249 Y53.047 E107.28916
G1 X147.26 Y53.852 E107.33215
G1 X147.773 Y54.394 E107.35697
G1 X148.311 Y55.415 E107.39535
G1 X148.374 Y55.604 E107.40198
G1 X148.82 Y55.774 E107.41785
G1 X149.647 Y56.319 E107.4508
G1 X150.397 Y56.968 E107.48378
G1 X151.061 Y58.005 E107.52474
G1 X151.487 Y59.237 E107.5681
G1 X151.488 Y160.527 E110.93701
G1 X151.206 Y161.624 E110.97469
G1 X150.953 Y162.249 E110.99711
G1 X150.148 Y163.26 E111.0401
G1 X149.606 Y163.773 E111.06492
G1 X148.549 Y164.33 E111.10466
G1 X148.386 Y164.383 E111.11036
G1 X147.83 Y165.488 E111.1515
G1 X147.143 Y166.32 E111.18739
G1 X146.029 Y167.045 E111.23159
G1 X144.777 Y167.488 E111.27577
G1 X75.473 Y167.488 E113.58083
G1 X74.376 Y167.206 E113.6185
G1 X73.751 Y166.953 E113.64093
G1 X72.74 Y166.148 E113.68391
G1 X72.225 Y165.603 E113.70885
G1 X71.674 Y164.558 E113.74814
G1 X71.622 Y164.401 E113.75364
G1 X71.222 Y164.249 E113.76787
G1 X70.286 Y163.629 E113.80522
G1 X69.608 Y163.041 E113.83507
G1 X68.935 Y161.983 E113.87677
G1 X68.513 Y160.763 E113.91971
G1 X68.514 Y125.518 E115.09196
G1 X68.789 Y124.396 E115.13038
G1 X69.287 Y123.432 E115.16647
G1 X69.4 Y123.276 E115.17288
G1 X69.4 Y118.688 E115.32548
G1 X68.736 Y117.584 E115.36832
G1 X68.55 Y116.459 E115.40625
G1 X68.514 Y59.475 E117.30155
G1 X68.798 Y58.332 E117.34072
G1 X69.003 Y57.826 E117.35888
G1 X69.837 Y56.704 E117.40537
M204 S2000
G0 F7500 X70.122 Y56.991
M204 S500
G1 F1500 X70.834 Y56.464 E117.43484
G1 X71.751 Y55.965 E117.46956
G1 X71.923 Y55.916 E117.47551
G1 X72.133 Y55.365 E117.49512
G1 X72.729 Y54.474 E117.53077
G1 X73.231 Y53.911 E117.55586
G1 X74.188 Y53.299 E117.59364
G1 X75.304 Y52.913 E117.63292
G1 X144.476 Y52.912 E119.93359
G1 X145.474 Y53.165 E119.96783
G1 X146.045 Y53.396 E119.98832
G1 X146.969 Y54.127 E120.02751
G1 X147.446 Y54.631 E120.05059
G1 X147.957 Y55.601 E120.08705
G1 X148.045 Y55.907 E120.09764
G1 X148.637 Y56.133 E120.11872
G1 X149.385 Y56.621 E120.14842
G1 X150.09 Y57.231 E120.17943
G1 X150.699 Y58.182 E120.21699
G1 X151.087 Y59.304 E120.25648
G1 X151.088 Y160.476 E123.62147
G1 X150.835 Y161.474 E123.65572
G1 X150.604 Y162.045 E123.6762
G1 X149.873 Y162.969 E123.71539
G1 X149.369 Y163.446 E123.73847
G1 X148.363 Y163.976 E123.77629
G1 X148.066 Y164.053 E123.78649
G1 X148.006 Y164.262 E123.79373
G1 X147.493 Y165.268 E123.83128
G1 X146.873 Y166.019 E123.86368
G1 X145.851 Y166.684 E123.90423
G1 X144.709 Y167.088 E123.94452
G1 X75.524 Y167.088 E126.24562
G1 X74.526 Y166.835 E126.27987
G1 X73.955 Y166.604 E126.30035
G1 X73.031 Y165.873 E126.33954
G1 X72.554 Y165.368 E126.36264
G1 X72.028 Y164.371 E126.40014
G1 X71.957 Y164.1 E126.40945
G1 X71.405 Y163.891 E126.42909
G1 X70.548 Y163.327 E126.46321
G1 X69.914 Y162.777 E126.49112
G1 X69.298 Y161.809 E126.52929
G1 X68.913 Y160.696 E126.56846
G1 X68.914 Y125.564 E127.73695
G1 X69.166 Y124.537 E127.77212
G1 X69.642 Y123.615 E127.80663
G1 X69.8 Y123.414 E127.81514
G1 X69.8 Y118.552 E127.97685
G1 X69.711 Y118.437 E127.98169
G1 X69.119 Y117.445 E128.02011
G1 X68.945 Y116.394 E128.05554
G1 X68.914 Y59.523 E129.94708
