;FLAVOR:Marlin
;TIME:10214
;Filament used: 6.90117m
;Layer height: 0.2
;MINX:49.796
;MINY:46.249
;MINZ:0.2
;MAXX:158.3
;MAXY:173.751
;MAXZ:42
;Generated with Cura_SteamEngine 5.4.0
M82 ;absolute extrusion mode
; Ender 3 S1 Start G-code
; M413 S0 ; Disable power loss recovery
G92 E0 ; Reset Extruder

; Prep surfaces before auto home for better accuracy
M140 S60
M104 S200

G28 O ; Home all untrusted axes
G1 Z10.0 F3000 ; Move Z Axis up little to prevent scratching of Heat Bed
G1 X0 Y0

M190 S60
M109 S200

G1 X0.1 Y20 Z0.3 F5000.0 ; Move to start position
G1 X0.1 Y200.0 Z0.3 F1500.0 E15 ; Draw the first line
G1 X0.4 Y200.0 Z0.3 F5000.0 ; Move to side a little
G1 X0.4 Y20 Z0.3 F1500.0 E30 ; Draw the second line
G92 E0 ; Reset Extruder
G1 Z2.0 F3000 ; Move Z Axis up little to prevent scratching of Heat Bed
G1 X5 Y20 Z0.3 F5000.0 ; Move over to prevent blob squish

G92 E0
G92 E0
G1 F2400 E-0.8
;LAYER_COUNT:210
;LAYER:0
M107
M204 S2000
G0 F7500 X53.466 Y50.057 Z0.2
M204 S500
;TYPE:SKIRT
G1 F2400 E0
G1 F1500 X54.323 Y49.265 E0.03881
G1 X55.068 Y48.681 E0.0703
G1 X56.53 Y47.767 E0.12764
G1 X57.425 Y47.324 E0.16086
G1 X58.318 Y46.972 E0.19278
G1 X59.58 Y46.596 E0.23658
G1 X60.088 Y46.484 E0.25388
G1 X61.949 Y46.262 E0.31622
G1 X62.535 Y46.249 E0.33571
G1 X117.689 Y46.251 E2.17014
G1 X118.439 Y46.449 E2.19594
G1 X129.661 Y46.449 E2.56919
G1 X130.014 Y46.374 E2.58119
G1 X130.927 Y46.273 E2.61174
G1 X133.668 Y46.303 E2.70292
G1 X135.301 Y46.55 E2.75785
G1 X136.571 Y46.905 E2.80171
G1 X138.013 Y47.483 E2.85338
G1 X139.273 Y48.167 E2.90106
G1 X140.175 Y48.783 E2.93739
G1 X141.471 Y49.892 E2.99412
G1 X142.123 Y50.581 E3.02567
G1 X143.446 Y52.384 E3.10005
G1 X144.05 Y53.502 E3.14232
G1 X144.581 Y54.783 E3.18844
G1 X144.963 Y56.091 E3.23376
G1 X145.103 Y56.764 E3.25662
G1 X145.286 Y58.37 E3.31039
G1 X145.3 Y58.975 E3.33051
G1 X145.299 Y95.76 E4.55399
G1 X145.586 Y95.782 E4.56356
G1 X146.174 Y95.86 E4.58329
G1 X147.344 Y96.097 E4.62299
G1 X148.376 Y96.383 E4.65861
G1 X148.768 Y96.516 E4.67238
G1 X150.101 Y97.071 E4.72041
G1 X150.771 Y97.408 E4.74535
G1 X151.333 Y97.723 E4.76678
G1 X151.819 Y98.027 E4.78584
G1 X152.717 Y98.666 E4.8225
G1 X153.334 Y99.167 E4.84894
G1 X153.752 Y99.542 E4.86761
G1 X154.368 Y100.156 E4.89654
G1 X155.055 Y100.924 E4.93081
G1 X155.375 Y101.329 E4.94798
G1 X156.163 Y102.477 E4.99429
G1 X156.607 Y103.247 E5.02386
G1 X157.054 Y104.164 E5.05779
G1 X157.521 Y105.341 E5.0999
G1 X157.801 Y106.257 E5.13176
G1 X158.142 Y107.856 E5.18614
G1 X158.218 Y108.431 E5.20543
G1 X158.294 Y109.606 E5.24459
G1 X158.3 Y110.253 E5.26611
G1 X158.275 Y110.846 E5.28585
G1 X158.218 Y111.586 E5.31054
G1 X158.14 Y112.174 E5.33027
G1 X157.933 Y113.194 E5.36489
G1 X157.59 Y114.47 E5.40883
G1 X157.495 Y114.75 E5.41867
G1 X156.943 Y116.074 E5.46638
G1 X156.586 Y116.786 E5.49287
G1 X156.264 Y117.357 E5.51467
G1 X155.986 Y117.8 E5.53207
G1 X155.233 Y118.85 E5.57504
G1 X154.87 Y119.292 E5.59406
G1 X154.459 Y119.752 E5.61458
G1 X153.851 Y120.362 E5.64323
G1 X153.085 Y121.051 E5.67749
G1 X152.722 Y121.338 E5.69289
G1 X151.467 Y122.199 E5.74351
G1 X150.789 Y122.59 E5.76954
G1 X149.73 Y123.106 E5.80872
G1 X149.191 Y123.329 E5.82812
G1 X147.589 Y123.837 E5.88402
G1 X146.877 Y124.005 E5.90835
G1 X146.144 Y124.142 E5.93315
G1 X145.567 Y124.218 E5.95251
G1 X145.298 Y124.235 E5.96147
G1 X145.298 Y128.028 E6.08763
G1 X145.1 Y128.76 E6.11285
G1 X145.1 Y158.108 E7.08897
G1 X145.175 Y158.438 E7.10022
G1 X145.257 Y159.054 E7.12089
G1 X145.226 Y162.404 E7.23232
G1 X145.085 Y163.337 E7.2637
G1 X144.745 Y164.714 E7.31088
G1 X144.486 Y165.467 E7.33736
G1 X143.805 Y166.987 E7.39276
G1 X143.312 Y167.829 E7.42521
G1 X142.48 Y168.986 E7.47261
G1 X141.565 Y170.008 E7.51824
G1 X140.452 Y170.996 E7.56774
G1 X139.537 Y171.675 E7.60563
G1 X139.164 Y171.912 E7.62033
G1 X137.488 Y172.753 E7.6827
G1 X136.647 Y173.075 E7.71265
G1 X135.518 Y173.404 E7.75176
G1 X135.009 Y173.516 E7.7691
G1 X133.148 Y173.738 E7.83143
G1 X132.561 Y173.751 E7.85096
G1 X103.873 Y173.75 E8.80513
G1 X103.127 Y173.553 E8.83079
G1 X65.508 Y173.555 E10.082
G1 X65.22 Y173.616 E10.0918
G1 X64.193 Y173.731 E10.12617
G1 X61.598 Y173.709 E10.21248
G1 X59.554 Y173.397 E10.28125
G1 X58.873 Y173.209 E10.30475
G1 X57.064 Y172.505 E10.36931
G1 X55.785 Y171.804 E10.41782
G1 X54.811 Y171.13 E10.45722
G1 X53.686 Y170.163 E10.50656
G1 X52.895 Y169.324 E10.54491
G1 X51.975 Y168.122 E10.59526
G1 X51.122 Y166.643 E10.65204
G1 X50.496 Y165.145 E10.70604
G1 X50.096 Y163.76 E10.75399
G1 X50.013 Y163.361 E10.76754
G1 X49.81 Y161.615 E10.82601
G1 X49.797 Y161.05 E10.8448
G1 X49.796 Y124.147 E12.0722
G1 X50.262 Y122.251 E12.13714
G1 X51.013 Y120.803 E12.19139
G1 X50.351 Y119.695 E12.23432
G1 X50.069 Y117.979 E12.29216
G1 X49.994 Y61.936 E14.15616
G1 X49.932 Y61.639 E14.16625
G1 X49.817 Y60.605 E14.20086
G1 X49.859 Y57.77 E14.29516
G1 X50.066 Y56.391 E14.34154
G1 X50.269 Y55.568 E14.36973
G1 X50.687 Y54.325 E14.41335
G1 X51.051 Y53.49 E14.44365
G1 X51.89 Y51.996 E14.50064
G1 X52.379 Y51.306 E14.52876
G1 X53.466 Y50.057 E14.58384
M204 S2000
G0 F7500 X53.768 Y50.32
M204 S500
G1 F1500 X54.57 Y49.58 E14.62013
G1 X55.315 Y48.996 E14.65162
G1 X56.708 Y48.125 E14.70626
G1 X57.572 Y47.696 E14.73834
G1 X58.432 Y47.355 E14.76911
G1 X59.666 Y46.987 E14.81194
G1 X60.174 Y46.875 E14.82924
G1 X61.958 Y46.662 E14.889
G1 X62.535 Y46.649 E14.9082
G1 X117.636 Y46.651 E16.74086
G1 X118.386 Y46.849 E16.76666
G1 X129.705 Y46.849 E17.14313
G1 X130.058 Y46.772 E17.15515
G1 X130.971 Y46.671 E17.1857
G1 X133.608 Y46.699 E17.27342
G1 X135.241 Y46.946 E17.32835
G1 X136.423 Y47.277 E17.36917
G1 X137.822 Y47.835 E17.41927
G1 X139.082 Y48.519 E17.46695
G1 X139.915 Y49.087 E17.50049
G1 X141.18 Y50.167 E17.55581
G1 X141.832 Y50.856 E17.58736
G1 X143.094 Y52.575 E17.65829
G1 X143.68 Y53.655 E17.69915
G1 X144.211 Y54.936 E17.74528
G1 X144.571 Y56.172 E17.78809
G1 X144.711 Y56.845 E17.81096
G1 X144.886 Y58.379 E17.86231
G1 X144.9 Y58.975 E17.88214
G1 X144.899 Y96.13 E19.11792
G1 X145.533 Y96.179 E19.13907
G1 X146.121 Y96.257 E19.1588
G1 X147.237 Y96.483 E19.19667
G1 X148.247 Y96.762 E19.23152
G1 X148.639 Y96.895 E19.24529
G1 X149.922 Y97.429 E19.29151
G1 X150.576 Y97.757 E19.31584
G1 X151.121 Y98.062 E19.33662
G1 X151.587 Y98.353 E19.35489
G1 X152.485 Y98.992 E19.39155
G1 X153.067 Y99.465 E19.41649
G1 X153.485 Y99.84 E19.43517
G1 X154.07 Y100.423 E19.46264
G1 X154.741 Y101.172 E19.49608
G1 X155.061 Y101.577 E19.51325
G1 X155.816 Y102.677 E19.55763
G1 X156.26 Y103.447 E19.58719
G1 X156.682 Y104.312 E19.6192
G1 X157.138 Y105.458 E19.66022
G1 X157.418 Y106.374 E19.69208
G1 X157.745 Y107.908 E19.74425
G1 X157.821 Y108.483 E19.76354
G1 X157.894 Y109.61 E19.8011
G1 X157.9 Y110.236 E19.82192
G1 X157.876 Y110.815 E19.8412
G1 X157.821 Y111.533 E19.86515
G1 X157.743 Y112.121 E19.88488
G1 X157.541 Y113.114 E19.91858
G1 X157.211 Y114.341 E19.96084
G1 X157.116 Y114.621 E19.97068
G1 X156.585 Y115.895 E20.01658
G1 X156.237 Y116.59 E20.04243
G1 X155.925 Y117.144 E20.06358
G1 X155.647 Y117.587 E20.08098
G1 X154.924 Y118.596 E20.12226
G1 X154.572 Y119.025 E20.14072
G1 X154.161 Y119.485 E20.16124
G1 X153.583 Y120.065 E20.18847
G1 X152.837 Y120.737 E20.22186
G1 X152.474 Y121.024 E20.23726
G1 X151.267 Y121.852 E20.28594
G1 X150.589 Y122.243 E20.31197
G1 X149.577 Y122.736 E20.34941
G1 X149.038 Y122.959 E20.36881
G1 X147.468 Y123.456 E20.42358
G1 X146.804 Y123.612 E20.44627
G1 X146.092 Y123.745 E20.47036
G1 X145.515 Y123.821 E20.48972
G1 X144.898 Y123.859 E20.51028
G1 X144.898 Y127.976 E20.64721
G1 X144.7 Y128.708 E20.67243
G1 X144.7 Y158.156 E21.65188
G1 X144.778 Y158.491 E21.66332
G1 X144.86 Y159.107 E21.68399
G1 X144.83 Y162.344 E21.79165
G1 X144.689 Y163.277 E21.82304
G1 X144.367 Y164.585 E21.86784
G1 X144.121 Y165.304 E21.89312
G1 X143.46 Y166.785 E21.94706
G1 X142.987 Y167.595 E21.97825
G1 X142.155 Y168.752 E22.02565
G1 X141.267 Y169.741 E22.06986
G1 X140.214 Y170.675 E22.11668
G1 X139.322 Y171.337 E22.15362
G1 X138.949 Y171.574 E22.16832
G1 X137.345 Y172.379 E22.22801
G1 X136.504 Y172.701 E22.25796
G1 X135.432 Y173.013 E22.2951
G1 X134.923 Y173.125 E22.31243
G1 X133.139 Y173.338 E22.37219
G1 X132.561 Y173.351 E22.39142
G1 X103.926 Y173.35 E23.34382
G1 X103.18 Y173.153 E23.36949
G1 X65.464 Y173.155 E24.62392
G1 X65.175 Y173.218 E24.63376
G1 X64.148 Y173.333 E24.66813
G1 X61.658 Y173.313 E24.75095
G1 X59.66 Y173.011 E24.81816
G1 X58.979 Y172.823 E24.84166
G1 X57.256 Y172.154 E24.90314
G1 X56.013 Y171.475 E24.95024
G1 X55.039 Y170.801 E24.98964
G1 X53.947 Y169.86 E25.03758
G1 X53.212 Y169.08 E25.07323
G1 X52.322 Y167.922 E25.12181
G1 X51.469 Y166.443 E25.17859
G1 X50.865 Y164.991 E25.2309
G1 X50.488 Y163.679 E25.2763
G1 X50.405 Y163.28 E25.28986
G1 X50.21 Y161.606 E25.34591
G1 X50.197 Y161.05 E25.36441
G1 X50.196 Y124.193 E26.59028
G1 X50.638 Y122.394 E26.65189
G1 X51.47 Y120.789 E26.71202
G1 X50.734 Y119.557 E26.75975
G1 X50.464 Y117.914 E26.81513
G1 X50.394 Y61.895 E28.67833
G1 X50.33 Y61.595 E28.68854
G1 X50.215 Y60.561 E28.72314
G1 X50.255 Y57.829 E28.81402
G1 X50.462 Y56.45 E28.86039
G1 X50.648 Y55.695 E28.88626
G1 X51.054 Y54.485 E28.92871
G1 X51.418 Y53.65 E28.959
G1 X52.217 Y52.227 E29.01328
G1 X52.681 Y51.569 E29.04006
G1 X53.768 Y50.32 E29.09513
M204 S2000
G0 F7500 X54.07 Y50.583
M204 S500
G1 F1500 X54.817 Y49.895 E29.12891
G1 X55.562 Y49.311 E29.1604
G1 X56.92 Y48.464 E29.21363
G1 X57.72 Y48.068 E29.24332
G1 X58.547 Y47.738 E29.27293
G1 X59.752 Y47.378 E29.31476
G1 X60.26 Y47.266 E29.33206
G1 X61.967 Y47.062 E29.38924
G1 X62.535 Y47.049 E29.40814
G1 X117.583 Y47.051 E31.23904
G1 X118.333 Y47.249 E31.26484
G1 X129.747 Y47.249 E31.64447
G1 X130.102 Y47.17 E31.65657
G1 X131.015 Y47.069 E31.68712
G1 X133.548 Y47.095 E31.77137
G1 X135.181 Y47.342 E31.82631
G1 X136.275 Y47.649 E31.8641
G1 X137.674 Y48.207 E31.91419
G1 X138.857 Y48.85 E31.95898
G1 X139.656 Y49.392 E31.99109
G1 X140.889 Y50.442 E32.04495
G1 X141.541 Y51.131 E32.0765
G1 X142.743 Y52.766 E32.144
G1 X143.31 Y53.808 E32.18345
G1 X143.841 Y55.089 E32.22958
G1 X144.179 Y56.253 E32.26989
G1 X144.319 Y56.926 E32.29275
G1 X144.486 Y58.389 E32.34173
G1 X144.5 Y58.975 E32.36122
G1 X144.499 Y96.519 E33.60994
G1 X144.785 Y96.523 E33.61946
G1 X145.48 Y96.576 E33.64264
G1 X146.068 Y96.654 E33.66237
G1 X147.158 Y96.875 E33.69936
G1 X148.118 Y97.141 E33.73249
G1 X148.51 Y97.274 E33.74626
G1 X149.768 Y97.798 E33.79159
G1 X150.381 Y98.106 E33.8144
G1 X150.909 Y98.401 E33.83452
G1 X151.355 Y98.679 E33.852
G1 X152.253 Y99.318 E33.88866
G1 X152.8 Y99.763 E33.91211
G1 X153.218 Y100.138 E33.93079
G1 X153.772 Y100.69 E33.9568
G1 X154.427 Y101.42 E33.98942
G1 X154.747 Y101.825 E34.00659
G1 X155.469 Y102.877 E34.04903
G1 X155.913 Y103.647 E34.07859
G1 X156.31 Y104.46 E34.10868
G1 X156.755 Y105.575 E34.14861
G1 X157.035 Y106.491 E34.18047
G1 X157.348 Y107.96 E34.23042
G1 X157.424 Y108.535 E34.24971
G1 X157.494 Y109.614 E34.28568
G1 X157.5 Y110.22 E34.30583
G1 X157.477 Y110.785 E34.32464
G1 X157.424 Y111.48 E34.34782
G1 X157.346 Y112.068 E34.36755
G1 X157.155 Y113.01 E34.39952
G1 X156.832 Y114.212 E34.44092
G1 X156.737 Y114.492 E34.45075
G1 X156.216 Y115.741 E34.49576
G1 X155.888 Y116.394 E34.52007
G1 X155.586 Y116.931 E34.54056
G1 X155.308 Y117.374 E34.55796
G1 X154.615 Y118.342 E34.59755
G1 X154.274 Y118.758 E34.61544
G1 X153.863 Y119.218 E34.63596
G1 X153.315 Y119.768 E34.66178
G1 X152.589 Y120.423 E34.6943
G1 X152.226 Y120.71 E34.7097
G1 X151.067 Y121.505 E34.75644
G1 X150.389 Y121.896 E34.78247
G1 X149.424 Y122.366 E34.81817
G1 X148.885 Y122.589 E34.83757
G1 X147.376 Y123.067 E34.89022
G1 X146.73 Y123.219 E34.91229
G1 X146.04 Y123.348 E34.93564
G1 X145.463 Y123.424 E34.955
G1 X144.498 Y123.483 E34.98715
G1 X144.498 Y127.924 E35.13486
G1 X144.3 Y128.656 E35.16008
G1 X144.3 Y158.202 E36.14279
G1 X144.381 Y158.544 E36.15448
G1 X144.463 Y159.16 E36.17515
G1 X144.434 Y162.284 E36.27906
G1 X144.293 Y163.217 E36.31044
G1 X143.988 Y164.457 E36.35291
G1 X143.756 Y165.141 E36.37693
G1 X143.114 Y166.584 E36.42946
G1 X142.662 Y167.361 E36.45936
G1 X141.83 Y168.518 E36.50676
G1 X140.97 Y169.473 E36.5495
G1 X139.976 Y170.354 E36.59368
G1 X139.107 Y170.999 E36.62968
G1 X138.734 Y171.236 E36.64438
G1 X137.202 Y172.005 E36.70139
G1 X136.361 Y172.327 E36.73134
G1 X135.346 Y172.622 E36.7665
G1 X134.837 Y172.734 E36.78383
G1 X133.13 Y172.938 E36.84101
G1 X132.561 Y172.951 E36.85994
G1 X103.979 Y172.95 E37.81058
G1 X103.233 Y172.753 E37.83624
G1 X65.422 Y172.755 E39.09384
G1 X65.13 Y172.82 E39.10379
G1 X64.103 Y172.935 E39.13816
G1 X61.662 Y172.913 E39.21936
G1 X59.766 Y172.625 E39.28314
G1 X59.085 Y172.437 E39.30664
G1 X57.447 Y171.803 E39.36506
G1 X56.24 Y171.146 E39.41076
G1 X55.3 Y170.498 E39.44874
G1 X54.208 Y169.557 E39.49668
G1 X53.529 Y168.835 E39.52965
G1 X52.669 Y167.722 E39.57643
G1 X51.816 Y166.243 E39.63321
G1 X51.249 Y164.88 E39.68231
G1 X50.88 Y163.598 E39.72669
G1 X50.797 Y163.199 E39.74024
G1 X50.61 Y161.596 E39.79392
G1 X50.597 Y161.05 E39.81208
G1 X50.596 Y124.24 E41.03639
G1 X51.015 Y122.536 E41.09475
G1 X51.927 Y120.776 E41.16068
G1 X51.117 Y119.419 E41.21324
G1 X50.859 Y117.849 E41.26616
G1 X50.794 Y61.85 E43.1287
G1 X50.728 Y61.551 E43.13888
G1 X50.613 Y60.517 E43.17349
G1 X50.651 Y57.888 E43.26094
G1 X50.858 Y56.509 E43.30732
G1 X51.027 Y55.822 E43.33085
G1 X51.421 Y54.645 E43.37213
G1 X51.785 Y53.81 E43.40243
G1 X52.545 Y52.457 E43.45404
G1 X52.983 Y51.832 E43.47942
G1 X54.07 Y50.583 E43.5345
M204 S2000
G0 F7500 X54.341 Y50.877
M204 S500
G1 F1500 X55.064 Y50.21 E43.56721
G1 X55.809 Y49.626 E43.5987
G1 X57.098 Y48.822 E43.64923
G1 X57.868 Y48.44 E43.67781
G1 X58.695 Y48.11 E43.70743
G1 X59.838 Y47.769 E43.7471
G1 X60.346 Y47.657 E43.7644
G1 X61.976 Y47.462 E43.819
G1 X62.535 Y47.449 E43.8376
G1 X117.53 Y47.451 E45.66674
G1 X118.28 Y47.649 E45.69254
G1 X129.794 Y47.649 E46.0755
G1 X130.146 Y47.568 E46.08751
G1 X131.059 Y47.467 E46.11806
G1 X133.488 Y47.491 E46.19886
G1 X135.121 Y47.738 E46.25379
G1 X136.127 Y48.021 E46.28855
G1 X137.526 Y48.579 E46.33864
G1 X138.633 Y49.181 E46.38055
G1 X139.397 Y49.697 E46.41122
G1 X140.598 Y50.717 E46.46363
G1 X141.25 Y51.406 E46.49518
G1 X142.392 Y52.958 E46.55926
G1 X142.94 Y53.961 E46.59728
G1 X143.471 Y55.242 E46.6434
G1 X143.787 Y56.334 E46.68121
G1 X143.927 Y57.007 E46.70407
G1 X144.086 Y58.399 E46.75067
G1 X144.1 Y58.975 E46.76984
G1 X144.099 Y96.914 E48.03169
G1 X144.755 Y96.922 E48.05351
G1 X145.427 Y96.973 E48.07593
G1 X146.015 Y97.051 E48.09566
G1 X147.078 Y97.267 E48.13173
G1 X147.989 Y97.52 E48.16318
G1 X148.381 Y97.653 E48.17695
G1 X149.614 Y98.167 E48.22138
G1 X150.186 Y98.455 E48.24268
G1 X150.698 Y98.741 E48.26219
G1 X151.123 Y99.005 E48.27883
G1 X152.001 Y99.629 E48.31465
G1 X152.533 Y100.061 E48.33745
G1 X152.951 Y100.436 E48.35612
G1 X153.474 Y100.957 E48.38068
G1 X154.113 Y101.668 E48.41247
G1 X154.433 Y102.073 E48.42964
G1 X155.122 Y103.077 E48.47014
G1 X155.566 Y103.847 E48.4997
G1 X155.95 Y104.635 E48.52886
G1 X156.372 Y105.692 E48.56671
G1 X156.652 Y106.608 E48.59857
G1 X156.951 Y108.012 E48.64631
G1 X157.027 Y108.587 E48.66561
G1 X157.094 Y109.618 E48.69997
G1 X157.1 Y110.204 E48.71946
G1 X157.078 Y110.755 E48.7378
G1 X157.027 Y111.427 E48.76022
G1 X156.949 Y112.015 E48.77994
G1 X156.763 Y112.93 E48.811
G1 X156.453 Y114.083 E48.85071
G1 X156.358 Y114.363 E48.86054
G1 X155.858 Y115.562 E48.90375
G1 X155.539 Y116.198 E48.92742
G1 X155.247 Y116.718 E48.94725
G1 X154.969 Y117.161 E48.96465
G1 X154.305 Y118.089 E49.0026
G1 X153.976 Y118.491 E49.01988
G1 X153.565 Y118.951 E49.0404
G1 X153.047 Y119.471 E49.06481
G1 X152.341 Y120.109 E49.09646
G1 X151.978 Y120.396 E49.11185
G1 X150.867 Y121.158 E49.15666
G1 X150.189 Y121.549 E49.18269
G1 X149.271 Y121.996 E49.21665
G1 X148.732 Y122.219 E49.23605
G1 X147.284 Y122.678 E49.28657
G1 X146.657 Y122.826 E49.308
G1 X145.988 Y122.951 E49.33063
G1 X145.411 Y123.027 E49.34999
G1 X144.098 Y123.107 E49.39374
G1 X144.098 Y127.872 E49.55223
G1 X143.9 Y128.604 E49.57745
G1 X143.9 Y158.251 E50.56351
G1 X143.984 Y158.597 E50.57535
G1 X144.066 Y159.213 E50.59602
G1 X144.038 Y162.224 E50.69617
