;FLAVOR:Marlin
;TIME:10111
;Filament used: 7.28183m
;Layer height: 0.2
;MINX:46.249
;MINY:46.063
;MINZ:0.2
;MAXX:173.751
;MAXY:167.973
;MAXZ:6.8
;Generated with Cura_SteamEngine 5.4.0
M82 ;absolute extrusion mode
; Ender 3 S1 Start G-code
; M413 S0 ; Disable power loss recovery
G92 E0 ; Reset Extruder

; Prep surfaces before auto home for better accuracy
M140 S60
M104 S200

G28 O ; Home all untrusted axes
G1 Z10.0 F3000 ; Move Z Axis up little to prevent scratching of Heat Bed
G1 X0 Y0

M190 S60
M109 S200

G1 X0.1 Y20 Z0.3 F5000.0 ; Move to start position
G1 X0.1 Y200.0 Z0.3 F1500.0 E15 ; Draw the first line
G1 X0.4 Y200.0 Z0.3 F5000.0 ; Move to side a little
G1 X0.4 Y20 Z0.3 F1500.0 E30 ; Draw the second line
G92 E0 ; Reset Extruder
G1 Z2.0 F3000 ; Move Z Axis up little to prevent scratching of Heat Bed
G1 X5 Y20 Z0.3 F5000.0 ; Move over to prevent blob squish

G92 E0
G92 E0
G1 F2400 E-0.8
;LAYER_COUNT:34
;LAYER:0
M107
M204 S2000
G0 F7500 X49.803 Y50.15 Z0.2
M204 S500
;TYPE:SKIRT
G1 F2400 E0
G1 F1500 X50.853 Y49.164 E0.04791
G1 X52.092 Y48.258 E0.09896
G1 X53.411 Y47.52 E0.14923
G1 X54.965 Y46.882 E0.2051
G1 X56.253 Y46.526 E0.24955
G1 X57.831 Y46.277 E0.30268
G1 X58.359 Y46.242 E0.32028
G1 X60.845 Y46.228 E0.40297
G1 X61.631 Y46.423 E0.4299
G1 X95.88 Y46.42 E1.56903
G1 X97.72 Y46.865 E1.63199
G1 X99.025 Y47.543 E1.6809
G1 X100.305 Y46.778 E1.7305
G1 X102.021 Y46.496 E1.78834
G1 X159.543 Y46.423 E3.70153
G1 X161.112 Y46.063 E3.75507
G1 X163.256 Y46.383 E3.82717
G1 X164.887 Y46.834 E3.88346
G1 X166.393 Y47.424 E3.93725
G1 X167.148 Y47.802 E3.96533
G1 X168.019 Y48.329 E3.99919
G1 X168.888 Y48.962 E4.03495
G1 X170.275 Y50.227 E4.09739
G1 X170.838 Y50.872 E4.12587
G1 X171.695 Y52.042 E4.1741
G1 X172.322 Y53.117 E4.21549
G1 X172.94 Y54.51 E4.26618
G1 X173.444 Y56.163 E4.32366
G1 X173.54 Y56.624 E4.33932
G1 X173.738 Y58.37 E4.39776
G1 X173.751 Y58.95 E4.41706
G1 X173.75 Y87.65 E5.37163
G1 X173.553 Y88.396 E5.39729
G1 X173.555 Y126.021 E6.6487
G1 X173.596 Y126.231 E6.65582
G1 X173.747 Y127.717 E6.7055
G1 X173.675 Y130.335 E6.7926
G1 X173.431 Y131.786 E6.84154
G1 X172.97 Y133.343 E6.89555
G1 X172.465 Y134.558 E6.93931
G1 X171.971 Y135.466 E6.97369
G1 X170.992 Y136.889 E7.03114
G1 X169.937 Y138.074 E7.08391
G1 X169.482 Y138.498 E7.1046
G1 X167.886 Y139.7 E7.17105
G1 X166.41 Y140.516 E7.22715
G1 X165.091 Y141.052 E7.2745
G1 X163.973 Y141.378 E7.31323
G1 X163.464 Y141.49 E7.33057
G1 X161.639 Y141.713 E7.39172
G1 X161.234 Y141.726 E7.4052
G1 X157.8 Y141.726 E7.51941
G1 X157.8 Y153.026 E7.89525
G1 X157.334 Y154.922 E7.96019
G1 X156.281 Y156.95 E8.03619
G1 X154.72 Y158.409 E8.10726
G1 X152.697 Y159.616 E8.18561
G1 X150.979 Y159.898 E8.24351
G1 X126.983 Y159.973 E9.04163
G1 X125.903 Y160.616 E9.08343
G1 X124.179 Y160.898 E9.14154
G1 X103.315 Y160.966 E9.83548
G1 X102.834 Y162.922 E9.90248
G1 X101.781 Y164.95 E9.97848
G1 X100.22 Y166.409 E10.04954
G1 X98.197 Y167.616 E10.12789
G1 X96.479 Y167.898 E10.1858
G1 X73.147 Y167.973 E10.96183
G1 X71.251 Y167.507 E11.02677
G1 X69.223 Y166.454 E11.10277
G1 X67.75 Y164.879 E11.17449
G1 X66.741 Y163.169 E11.24053
G1 X66.518 Y162.64 E11.25963
G1 X66.247 Y160.824 E11.3207
G1 X66.224 Y158.974 E11.38223
G1 X65.223 Y158.454 E11.41975
G1 X63.764 Y156.893 E11.49082
G1 X62.557 Y154.87 E11.56917
G1 X62.275 Y153.152 E11.62707
G1 X62.214 Y141.526 E12.01376
G1 X61.265 Y141.526 E12.04532
G1 X61.063 Y141.582 E12.0523
G1 X59.68 Y141.851 E12.09916
G1 X57.248 Y141.6 E12.18047
G1 X55.693 Y141.293 E12.23319
G1 X55.092 Y141.115 E12.25404
G1 X53.486 Y140.469 E12.31162
G1 X52.891 Y140.163 E12.33387
G1 X51.817 Y139.649 E12.37347
G1 X50.846 Y138.792 E12.41655
G1 X49.878 Y138.039 E12.45734
G1 X48.67 Y136.602 E12.51977
G1 X48.375 Y136.002 E12.54201
G1 X47.793 Y135.044 E12.57929
G1 X47.292 Y134.022 E12.61715
G1 X46.938 Y133.112 E12.64963
G1 X46.596 Y131.943 E12.69014
G1 X46.484 Y131.435 E12.70744
G1 X46.262 Y129.579 E12.76961
G1 X46.249 Y129 E12.78887
G1 X46.252 Y65.576 E14.89836
G1 X46.449 Y64.822 E14.92428
G1 X46.449 Y61.859 E15.02283
G1 X46.371 Y61.487 E15.03548
G1 X46.27 Y60.566 E15.06629
G1 X46.291 Y58.02 E15.15098
G1 X46.593 Y56.03 E15.21792
G1 X46.806 Y55.258 E15.24456
G1 X47.463 Y53.558 E15.30517
G1 X48.208 Y52.186 E15.3571
G1 X48.727 Y51.421 E15.38785
G1 X49.803 Y50.15 E15.44324
M204 S2000
G0 F7500 X50.077 Y50.442
M204 S500
G1 F1500 X51.127 Y49.456 E15.49114
G1 X52.328 Y48.581 E15.54057
G1 X53.563 Y47.89 E15.58763
G1 X55.072 Y47.268 E15.64192
G1 X56.36 Y46.912 E15.68637
G1 X57.858 Y46.676 E15.7368
G1 X58.361 Y46.642 E15.75357
G1 X60.798 Y46.628 E15.83463
G1 X61.583 Y46.823 E15.86153
G1 X95.831 Y46.82 E17.00062
G1 X97.58 Y47.243 E17.06047
G1 X99.038 Y48 E17.11511
G1 X100.443 Y47.161 E17.16954
G1 X102.086 Y46.891 E17.22492
G1 X159.59 Y46.823 E19.13751
G1 X161.127 Y46.47 E19.18997
G1 X163.149 Y46.769 E19.25795
G1 X164.78 Y47.22 E19.31423
G1 X166.214 Y47.782 E19.36546
G1 X166.969 Y48.16 E19.39354
G1 X167.784 Y48.653 E19.42522
G1 X168.619 Y49.258 E19.45952
G1 X169.974 Y50.491 E19.52045
G1 X170.515 Y51.108 E19.54774
G1 X171.372 Y52.278 E19.59598
G1 X171.956 Y53.279 E19.63453
G1 X172.574 Y54.672 E19.68521
G1 X173.052 Y56.245 E19.73989
G1 X173.148 Y56.706 E19.75555
G1 X173.338 Y58.379 E19.81156
G1 X173.351 Y58.95 E19.83055
G1 X173.35 Y87.597 E20.78336
G1 X173.153 Y88.343 E20.80902
G1 X173.155 Y126.063 E22.06359
G1 X173.198 Y126.272 E22.07069
G1 X173.347 Y127.707 E22.11867
G1 X173.28 Y130.269 E22.20391
G1 X173.047 Y131.672 E22.25122
G1 X172.586 Y133.229 E22.30523
G1 X172.096 Y134.404 E22.34757
G1 X171.641 Y135.239 E22.3792
G1 X170.662 Y136.662 E22.43664
G1 X169.664 Y137.781 E22.48651
G1 X169.209 Y138.205 E22.5072
G1 X167.646 Y139.38 E22.57224
G1 X166.259 Y140.145 E22.62492
G1 X164.94 Y140.681 E22.67227
G1 X163.887 Y140.987 E22.70875
G1 X163.378 Y141.099 E22.72608
G1 X161.626 Y141.313 E22.78479
G1 X161.221 Y141.326 E22.79826
G1 X157.4 Y141.326 E22.92535
G1 X157.4 Y152.98 E23.31296
G1 X156.958 Y154.779 E23.37458
G1 X155.958 Y156.705 E23.44676
G1 X154.481 Y158.085 E23.51399
G1 X152.557 Y159.233 E23.58851
G1 X150.914 Y159.503 E23.64389
G1 X126.871 Y159.573 E24.44356
G1 X125.763 Y160.233 E24.48646
G1 X124.114 Y160.503 E24.54203
G1 X102.9 Y160.567 E25.24762
G1 X102.9 Y160.98 E25.26135
G1 X102.458 Y162.779 E25.32297
G1 X101.458 Y164.705 E25.39515
G1 X99.981 Y166.085 E25.46238
G1 X98.057 Y167.233 E25.5369
G1 X96.414 Y167.503 E25.59228
G1 X73.193 Y167.573 E26.36461
G1 X71.394 Y167.131 E26.42623
G1 X69.468 Y166.131 E26.49841
G1 X68.073 Y164.639 E26.56634
G1 X67.11 Y163.014 E26.62917
G1 X66.907 Y162.532 E26.64656
G1 X66.643 Y160.765 E26.70599
G1 X66.621 Y158.73 E26.77367
G1 X65.468 Y158.131 E26.81689
G1 X64.088 Y156.654 E26.88412
G1 X62.94 Y154.73 E26.95864
G1 X62.67 Y153.087 E27.01402
G1 X62.612 Y141.126 E27.41185
G1 X61.209 Y141.126 E27.45851
G1 X60.987 Y141.189 E27.46619
G1 X59.661 Y141.447 E27.51112
G1 X57.325 Y141.207 E27.58922
G1 X55.807 Y140.909 E27.64067
G1 X55.206 Y140.731 E27.66152
G1 X53.636 Y140.098 E27.71782
G1 X53.064 Y139.802 E27.73925
G1 X52.04 Y139.312 E27.777
G1 X51.107 Y138.488 E27.8184
G1 X50.156 Y137.749 E27.85846
G1 X49.008 Y136.383 E27.91781
G1 X48.724 Y135.805 E27.93923
G1 X48.135 Y134.836 E27.97694
G1 X47.665 Y133.876 E28.01249
G1 X47.322 Y132.999 E28.04382
G1 X46.987 Y131.857 E28.0834
G1 X46.875 Y131.349 E28.1007
G1 X46.662 Y129.57 E28.16029
G1 X46.649 Y129 E28.17926
G1 X46.652 Y65.627 E30.28705
G1 X46.849 Y64.873 E30.31297
G1 X46.849 Y61.817 E30.41461
G1 X46.769 Y61.443 E30.42733
G1 X46.668 Y60.522 E30.45815
G1 X46.691 Y58.024 E30.54124
G1 X46.979 Y56.136 E30.60476
G1 X47.192 Y55.364 E30.6314
G1 X47.836 Y53.703 E30.69065
G1 X48.54 Y52.41 E30.73962
G1 X49.033 Y51.679 E30.76894
G1 X50.077 Y50.442 E30.82278
M204 S2000
G0 F7500 X50.351 Y50.734
M204 S500
G1 F1500 X51.401 Y49.748 E30.87069
G1 X52.524 Y48.93 E30.91689
G1 X53.716 Y48.26 E30.96237
G1 X55.179 Y47.654 E31.01504
G1 X56.467 Y47.298 E31.05949
G1 X57.886 Y47.075 E31.10726
G1 X58.363 Y47.042 E31.12317
G1 X60.75 Y47.028 E31.20256
G1 X61.534 Y47.223 E31.22943
G1 X95.782 Y47.22 E32.36852
G1 X97.44 Y47.621 E32.42526
G1 X99.051 Y48.458 E32.48564
G1 X100.581 Y47.544 E32.54492
G1 X102.151 Y47.286 E32.59784
G1 X159.637 Y47.223 E34.50983
G1 X161.143 Y46.877 E34.56123
G1 X163.042 Y47.155 E34.62506
G1 X164.673 Y47.606 E34.68134
G1 X166.035 Y48.14 E34.73
G1 X166.79 Y48.518 E34.75808
G1 X167.55 Y48.978 E34.78763
G1 X168.35 Y49.554 E34.82042
G1 X169.673 Y50.755 E34.87985
G1 X170.214 Y51.372 E34.90714
G1 X171.027 Y52.48 E34.95285
G1 X171.59 Y53.441 E34.98989
G1 X172.208 Y54.834 E35.04058
G1 X172.66 Y56.327 E35.09246
G1 X172.756 Y56.788 E35.10812
G1 X172.938 Y58.388 E35.16168
G1 X172.951 Y58.95 E35.18038
G1 X172.95 Y87.544 E36.13142
G1 X172.753 Y88.29 E36.15708
G1 X172.755 Y126.106 E37.41485
G1 X172.8 Y126.314 E37.42193
G1 X172.947 Y127.697 E37.46819
G1 X172.885 Y130.204 E37.55159
G1 X172.663 Y131.558 E37.59723
G1 X172.202 Y133.115 E37.65124
G1 X171.727 Y134.249 E37.69213
G1 X171.311 Y135.012 E37.72103
G1 X170.332 Y136.435 E37.77848
G1 X169.391 Y137.488 E37.82545
G1 X168.936 Y137.912 E37.84614
G1 X167.406 Y139.06 E37.90976
G1 X166.108 Y139.775 E37.95905
G1 X164.828 Y140.297 E38.00502
G1 X163.801 Y140.596 E38.0406
G1 X163.292 Y140.708 E38.05793
G1 X161.613 Y140.913 E38.11419
G1 X161.208 Y140.926 E38.12767
G1 X157 Y140.926 E38.26763
G1 X157 Y152.933 E38.66698
G1 X156.581 Y154.637 E38.72535
G1 X155.635 Y156.46 E38.79366
G1 X154.239 Y157.764 E38.85719
G1 X152.419 Y158.85 E38.92768
G1 X150.849 Y159.108 E38.9806
G1 X126.759 Y159.173 E39.78184
G1 X125.623 Y159.85 E39.82583
G1 X124.049 Y160.108 E39.87888
G1 X102.5 Y160.168 E40.5956
G1 X102.5 Y160.933 E40.62105
G1 X102.081 Y162.637 E40.67941
G1 X101.135 Y164.46 E40.74772
G1 X99.739 Y165.764 E40.81126
G1 X97.919 Y166.85 E40.88175
G1 X96.349 Y167.108 E40.93467
G1 X73.24 Y167.173 E41.70328
G1 X71.536 Y166.754 E41.76164
G1 X69.713 Y165.808 E41.82995
G1 X68.397 Y164.4 E41.89405
G1 X67.479 Y162.859 E41.95371
G1 X67.296 Y162.424 E41.96941
G1 X67.039 Y160.706 E42.02719
G1 X67.019 Y158.486 E42.10103
G1 X65.713 Y157.808 E42.14997
G1 X64.409 Y156.412 E42.21351
G1 X63.323 Y154.592 E42.284
G1 X63.065 Y153.022 E42.33692
G1 X63.01 Y140.726 E42.74589
G1 X61.155 Y140.726 E42.80758
G1 X60.911 Y140.796 E42.81603
G1 X59.642 Y141.043 E42.85903
G1 X57.366 Y140.809 E42.93513
G1 X55.921 Y140.525 E42.98411
G1 X55.32 Y140.347 E43.00495
G1 X53.82 Y139.743 E43.05874
G1 X53.237 Y139.441 E43.08057
G1 X52.263 Y138.975 E43.11649
G1 X51.36 Y138.178 E43.15655
G1 X50.432 Y137.456 E43.19565
G1 X49.346 Y136.164 E43.25179
G1 X49.073 Y135.608 E43.27239
G1 X48.477 Y134.628 E43.31054
G1 X48.038 Y133.73 E43.34379
G1 X47.695 Y132.853 E43.37511
G1 X47.378 Y131.771 E43.41261
G1 X47.266 Y131.263 E43.42991
G1 X47.062 Y129.561 E43.48692
G1 X47.049 Y129 E43.50559
G1 X47.052 Y65.678 E45.61168
G1 X47.249 Y64.924 E45.6376
G1 X47.249 Y61.772 E45.74244
G1 X47.167 Y61.399 E45.75514
G1 X47.066 Y60.478 E45.78596
G1 X47.087 Y58.084 E45.86559
G1 X47.365 Y56.242 E45.92755
G1 X47.578 Y55.47 E45.95418
G1 X48.188 Y53.894 E46.01039
G1 X48.872 Y52.634 E46.05807
G1 X49.365 Y51.903 E46.0874
G1 X50.351 Y50.734 E46.13826
M204 S2000
G0 F7500 X50.625 Y51.026
M204 S500
G1 F1500 X51.675 Y50.04 E46.18617
G1 X52.72 Y49.279 E46.22917
G1 X53.912 Y48.609 E46.27465
G1 X55.286 Y48.039 E46.32412
G1 X56.53 Y47.693 E46.36707
G1 X57.914 Y47.474 E46.41367
G1 X58.365 Y47.442 E46.42871
G1 X60.702 Y47.428 E46.50644
G1 X61.485 Y47.623 E46.53328
G1 X95.733 Y47.62 E47.67237
G1 X97.3 Y47.999 E47.726
G1 X99.064 Y48.915 E47.7921
G1 X100.719 Y47.927 E47.85621
G1 X102.216 Y47.681 E47.90667
G1 X159.684 Y47.623 E49.81807
G1 X161.16 Y47.284 E49.86844
G1 X162.935 Y47.541 E49.92809
G1 X164.566 Y47.992 E49.98437
G1 X165.856 Y48.498 E50.03046
G1 X166.611 Y48.876 E50.05854
G1 X167.316 Y49.303 E50.08596
G1 X168.116 Y49.879 E50.11874
G1 X169.373 Y51.019 E50.17518
G1 X169.892 Y51.609 E50.20132
G1 X170.682 Y52.683 E50.24566
G1 X171.224 Y53.603 E50.28118
G1 X171.842 Y54.996 E50.33186
G1 X172.268 Y56.409 E50.38095
G1 X172.364 Y56.87 E50.39661
G1 X172.538 Y58.397 E50.44773
G1 X172.551 Y58.95 E50.46613
G1 X172.55 Y87.491 E51.4154
G1 X172.353 Y88.237 E51.44107
G1 X172.355 Y126.151 E52.70209
G1 X172.402 Y126.357 E52.70912
G1 X172.547 Y127.688 E52.75365
G1 X172.49 Y130.14 E52.83523
G1 X172.279 Y131.445 E52.8792
G1 X171.833 Y132.96 E52.93172
G1 X171.358 Y134.094 E52.97261
G1 X170.981 Y134.785 E52.9988
G1 X170.002 Y136.208 E53.05624
G1 X169.118 Y137.195 E53.10031
G1 X168.663 Y137.619 E53.121
G1 X167.212 Y138.71 E53.18138
G1 X165.956 Y139.405 E53.22912
G1 X164.716 Y139.913 E53.27369
G1 X163.715 Y140.205 E53.30837
G1 X163.206 Y140.317 E53.32571
G1 X161.6 Y140.513 E53.37952
G1 X161.195 Y140.526 E53.393
G1 X156.6 Y140.526 E53.54583
G1 X156.6 Y152.887 E53.95696
G1 X156.205 Y154.494 E54.012
G1 X155.312 Y156.215 E54.07648
G1 X153.997 Y157.443 E54.13633
G1 X152.281 Y158.467 E54.20279
G1 X150.784 Y158.713 E54.25325
G1 X126.647 Y158.773 E55.05605
G1 X125.483 Y159.467 E55.10112
G1 X123.984 Y159.713 E55.15165
G1 X102.1 Y159.769 E55.87952
G1 X102.1 Y160.887 E55.9167
G1 X101.705 Y162.494 E55.97174
G1 X100.812 Y164.215 E56.03623
G1 X99.497 Y165.443 E56.09607
G1 X97.781 Y166.467 E56.16253
G1 X96.284 Y166.713 E56.21299
G1 X73.286 Y166.773 E56.97791
G1 X71.679 Y166.378 E57.03295
G1 X69.958 Y165.485 E57.09744
G1 X68.721 Y164.161 E57.15771
G1 X67.823 Y162.654 E57.21605
G1 X67.685 Y162.317 E57.22816
G1 X67.435 Y160.647 E57.28433
G1 X67.417 Y158.242 E57.36432
G1 X65.958 Y157.485 E57.41899
G1 X64.73 Y156.17 E57.47883
G1 X63.706 Y154.454 E57.5453
G1 X63.46 Y152.957 E57.59575
G1 X63.408 Y140.326 E58.01587
G1 X61.098 Y140.326 E58.0927
G1 X60.835 Y140.403 E58.10181
G1 X59.623 Y140.639 E58.14288
G1 X57.407 Y140.411 E58.21697
G1 X56.035 Y140.141 E58.26348
G1 X55.434 Y139.963 E58.28433
G1 X54.004 Y139.388 E58.33559
G1 X53.41 Y139.08 E58.35785
G1 X52.486 Y138.638 E58.39192
G1 X51.621 Y137.874 E58.4303
G1 X50.71 Y137.166 E58.46868
G1 X49.684 Y135.945 E58.52172
G1 X49.422 Y135.411 E58.5415
G1 X48.819 Y134.42 E58.58009
G1 X48.411 Y133.584 E58.61103
G1 X48.068 Y132.707 E58.64235
G1 X47.769 Y131.685 E58.67776
G1 X47.657 Y131.177 E58.69507
G1 X47.462 Y129.552 E58.7495
G1 X47.449 Y129 E58.76787
G1 X47.452 Y65.729 E60.87227
G1 X47.649 Y64.975 E60.89819
G1 X47.649 Y61.728 E61.00618
G1 X47.565 Y61.355 E61.0189
G1 X47.464 Y60.434 E61.04972
G1 X47.487 Y58.088 E61.12775
G1 X47.751 Y56.348 E61.18628
G1 X47.964 Y55.576 E61.21292
G1 X48.54 Y54.084 E61.26611
G1 X49.204 Y52.858 E61.31249
G1 X49.697 Y52.127 E61.34181
G1 X50.625 Y51.026 E61.3897
M204 S2000
G0 F7500 X50.899 Y51.318
M204 S500
G1 F1500 X51.949 Y50.332 E61.43761
G1 X52.916 Y49.628 E61.4774
G1 X54.108 Y48.958 E61.52287
G1 X55.394 Y48.424 E61.56919
G1 X56.593 Y48.088 E61.6106
G1 X57.943 Y47.873 E61.65607
G1 X58.367 Y47.842 E61.67021
G1 X60.654 Y47.828 E61.74628
G1 X61.436 Y48.023 E61.77308
G1 X95.684 Y48.02 E62.91218
G1 X97.16 Y48.377 E62.96268
G1 X98.802 Y49.229 E63.02421
G1 X99.027 Y49.473 E63.03525
G1 X99.239 Y49.276 E63.04488
G1 X100.857 Y48.31 E63.10755
G1 X102.281 Y48.076 E63.15555
G1 X159.731 Y48.023 E65.06635
G1 X161.177 Y47.691 E65.11569
G1 X162.828 Y47.927 E65.17116
G1 X164.459 Y48.378 E65.22745
G1 X165.677 Y48.856 E65.27096
G1 X166.404 Y49.219 E65.29799
G1 X167.082 Y49.628 E65.32433
G1 X167.882 Y50.204 E65.35711
G1 X169.073 Y51.284 E65.41059
G1 X169.57 Y51.846 E65.43554
G1 X170.338 Y52.887 E65.47857
G1 X170.859 Y53.766 E65.51255
G1 X171.459 Y55.112 E65.56157
G1 X171.876 Y56.491 E65.60948
G1 X171.972 Y56.952 E65.62515
G1 X172.138 Y58.407 E65.67385
G1 X172.151 Y58.95 E65.69192
G1 X172.15 Y87.438 E66.63943
G1 X171.953 Y88.184 E66.6651
G1 X171.955 Y126.201 E67.92955
G1 X172.004 Y126.402 E67.93643
G1 X172.147 Y127.679 E67.97917
G1 X172.095 Y130.077 E68.05894
G1 X171.895 Y131.333 E68.10124
G1 X171.464 Y132.806 E68.15229
G1 X171.006 Y133.903 E68.19183
G1 X170.651 Y134.558 E68.21661
G1 X169.672 Y135.981 E68.27406
G1 X168.845 Y136.902 E68.31523
G1 X168.39 Y137.326 E68.33591
G1 X166.972 Y138.39 E68.39488
G1 X165.804 Y139.035 E68.43925
G1 X164.604 Y139.529 E68.48242
G1 X163.629 Y139.814 E68.5162
