;FLAVOR:Marlin
;TIME:2423
;Filament used: 1.6062m
;Layer height: 0.2
;MINX:62.2
;MINY:91.95
;MINZ:0.2
;MAXX:158.8
;MAXY:126.65
;MAXZ:8
;Generated with Cura_SteamEngine 5.4.0
M82 ;absolute extrusion mode
; Ender 3 S1 Start G-code
; M413 S0 ; Disable power loss recovery
G92 E0 ; Reset Extruder

; Prep surfaces before auto home for better accuracy
M140 S60
M104 S200

G28 O ; Home all untrusted axes
G1 Z10.0 F3000 ; Move Z Axis up little to prevent scratching of Heat Bed
G1 X0 Y0

M190 S60
M109 S200

G1 X0.1 Y20 Z0.3 F5000.0 ; Move to start position
G1 X0.1 Y200.0 Z0.3 F1500.0 E15 ; Draw the first line
G1 X0.4 Y200.0 Z0.3 F5000.0 ; Move to side a little
G1 X0.4 Y20 Z0.3 F1500.0 E30 ; Draw the second line
G92 E0 ; Reset Extruder
G1 Z2.0 F3000 ; Move Z Axis up little to prevent scratching of Heat Bed
G1 X5 Y20 Z0.3 F5000.0 ; Move over to prevent blob squish

G92 E0
G92 E0
G1 F2400 E-0.8
;LAYER_COUNT:40
;LAYER:0
M107
M204 S2000
G0 F7500 X65.297 Y95.897 Z0.2
M204 S500
;TYPE:SKIRT
G1 F2400 E0
G1 F1500 X66.88 Y94.965 E0.0611
G1 X67.672 Y94.643 E0.08953
G1 X69.131 Y94.425 E0.1386
G1 X69.878 Y93.814 E0.1707
G1 X72.163 Y92.636 E0.2562
G1 X73.957 Y92.398 E0.31639
G1 X78.404 Y92.348 E0.46431
G1 X79.962 Y92.788 E0.51816
G1 X81.733 Y93.506 E0.58172
G1 X82.045 Y93.766 E0.59523
G1 X82.252 Y93.683 E0.60264
G1 X83.945 Y93.415 E0.65965
G1 X94.057 Y93.35 E0.99599
G1 X95.947 Y93.81 E1.06068
G1 X97.009 Y94.363 E1.10051
G1 X98.107 Y93.707 E1.14305
G1 X99.821 Y93.425 E1.20082
G1 X122.054 Y93.35 E1.9403
G1 X123.922 Y93.815 E2.00433
G1 X124.177 Y93.695 E2.0137
G1 X125.945 Y93.415 E2.07324
G1 X136.048 Y93.35 E2.40927
G1 X137.397 Y93.684 E2.45549
G1 X137.526 Y93.586 E2.46088
G1 X139.717 Y92.426 E2.54334
G1 X141.978 Y91.95 E2.62019
G1 X146.802 Y91.951 E2.78063
G1 X149.774 Y93.081 E2.88639
G1 X151.462 Y94.499 E2.95971
G1 X152.738 Y94.811 E3.0034
G1 X154.777 Y95.869 E3.0798
G1 X156.248 Y97.442 E3.15143
G1 X157.186 Y99.039 E3.21304
G1 X157.508 Y99.831 E3.24147
G1 X157.772 Y101.721 E3.30494
G1 X157.783 Y102.494 E3.33066
G1 X158.442 Y103.6 E3.37348
G1 X158.745 Y105.57 E3.43977
G1 X158.8 Y114.558 E3.73872
G1 X158.34 Y116.447 E3.80338
G1 X157.8 Y117.484 E3.84227
G1 X157.8 Y118.703 E3.88281
G1 X157.334 Y120.599 E3.94775
G1 X156.281 Y122.627 E4.02375
G1 X154.72 Y124.086 E4.09482
G1 X152.697 Y125.293 E4.17317
G1 X150.979 Y125.575 E4.23108
G1 X124.982 Y125.65 E5.09574
G1 X123.903 Y126.293 E5.13752
G1 X122.179 Y126.575 E5.19562
G1 X99.947 Y126.65 E5.93507
G1 X98.041 Y126.184 E6.00033
G1 X97.016 Y125.65 E6.03877
G1 X69.147 Y125.65 E6.96569
G1 X67.251 Y125.184 E7.03063
G1 X65.223 Y124.131 E7.10663
G1 X63.764 Y122.57 E7.1777
G1 X62.557 Y120.547 E7.25605
G1 X62.275 Y118.829 E7.31396
G1 X62.2 Y101.302 E7.89691
G1 X62.667 Y99.4 E7.96205
G1 X63.719 Y97.373 E8.03801
G1 X65.297 Y95.897 E8.10988
M204 S2000
G0 F7500 X65.537 Y96.22
M204 S500
G1 F1500 X67.031 Y95.336 E8.16761
G1 X67.779 Y95.032 E8.19447
G1 X69.299 Y94.805 E8.24558
G1 X70.102 Y94.148 E8.28009
G1 X72.281 Y93.024 E8.36164
G1 X74.01 Y92.795 E8.41965
G1 X78.351 Y92.749 E8.56404
G1 X79.812 Y93.159 E8.61451
G1 X81.526 Y93.854 E8.67603
G1 X81.99 Y94.241 E8.69612
G1 X82.316 Y94.078 E8.70824
G1 X83.948 Y93.815 E8.76323
G1 X94.009 Y93.75 E9.09786
G1 X95.806 Y94.188 E9.15938
G1 X96.885 Y94.75 E9.19984
G1 X97.139 Y94.75 E9.20829
G1 X98.245 Y94.09 E9.25113
G1 X99.886 Y93.82 E9.30644
G1 X122.007 Y93.75 E10.0422
G1 X123.76 Y94.181 E10.10224
G1 X123.947 Y94.266 E10.10907
G1 X124.241 Y94.09 E10.12047
G1 X125.948 Y93.815 E10.17797
G1 X136.002 Y93.75 E10.51238
G1 X137.501 Y94.121 E10.56374
G1 X137.713 Y93.94 E10.57301
G1 X139.857 Y92.805 E10.6537
G1 X142.017 Y92.35 E10.72711
G1 X146.728 Y92.351 E10.8838
G1 X149.57 Y93.431 E10.98492
G1 X151.278 Y94.866 E11.05912
G1 X152.599 Y95.189 E11.10435
G1 X154.532 Y96.192 E11.17678
G1 X155.924 Y97.681 E11.24458
G1 X156.841 Y99.242 E11.30479
G1 X157.119 Y99.935 E11.32963
G1 X157.372 Y101.726 E11.38979
G1 X157.384 Y102.606 E11.41906
G1 X158.059 Y103.737 E11.46287
G1 X158.345 Y105.572 E11.52464
G1 X158.4 Y114.509 E11.82189
G1 X157.962 Y116.306 E11.8834
G1 X157.4 Y117.385 E11.92387
G1 X157.4 Y118.657 E11.96618
G1 X156.958 Y120.456 E12.02779
G1 X155.958 Y122.382 E12.09997
G1 X154.481 Y123.762 E12.1672
G1 X152.557 Y124.91 E12.24172
G1 X150.914 Y125.18 E12.2971
G1 X124.87 Y125.25 E13.16333
G1 X123.763 Y125.91 E13.20619
G1 X122.114 Y126.18 E13.26177
G1 X99.996 Y126.25 E13.99742
G1 X98.183 Y125.806 E14.0595
G1 X97.115 Y125.25 E14.09955
G1 X69.193 Y125.25 E15.02824
G1 X67.394 Y124.808 E15.08986
G1 X65.468 Y123.808 E15.16203
G1 X64.088 Y122.331 E15.22927
G1 X62.94 Y120.407 E15.30378
G1 X62.67 Y118.764 E15.35916
G1 X62.6 Y101.347 E15.93846
G1 X63.043 Y99.543 E16.00024
G1 X64.042 Y97.618 E16.07238
G1 X65.537 Y96.22 E16.14045
M204 S2000
G0 F7500 X65.776 Y96.544
M204 S500
G1 F1500 X67.182 Y95.707 E16.19488
G1 X67.886 Y95.421 E16.22015
G1 X69.467 Y95.185 E16.27332
G1 X70.326 Y94.482 E16.31024
G1 X72.4 Y93.412 E16.38786
G1 X74.062 Y93.192 E16.44362
G1 X78.3 Y93.15 E16.58458
G1 X79.662 Y93.53 E16.63161
G1 X81.319 Y94.202 E16.69108
G1 X81.951 Y94.73 E16.71847
G1 X82.381 Y94.473 E16.73514
G1 X83.951 Y94.215 E16.78805
G1 X93.96 Y94.15 E17.12096
G1 X95.665 Y94.566 E17.17933
G1 X96.786 Y95.15 E17.22137
G1 X97.249 Y95.15 E17.23677
G1 X98.383 Y94.473 E17.2807
G1 X99.951 Y94.215 E17.33355
G1 X121.96 Y94.15 E18.06558
G1 X123.664 Y94.569 E18.12394
G1 X123.961 Y94.723 E18.13507
G1 X124.379 Y94.473 E18.15127
G1 X125.951 Y94.215 E18.20425
G1 X135.956 Y94.15 E18.53703
G1 X137.618 Y94.562 E18.59398
G1 X137.9 Y94.293 E18.60694
G1 X139.994 Y93.184 E18.68575
G1 X142.056 Y92.75 E18.75584
G1 X146.654 Y92.751 E18.90877
G1 X149.364 Y93.781 E19.0052
G1 X150.979 Y95.132 E19.07523
G1 X151.072 Y95.228 E19.07967
G1 X152.46 Y95.567 E19.12719
G1 X154.287 Y96.515 E19.19565
G1 X155.603 Y97.923 E19.25975
G1 X156.47 Y99.391 E19.31646
G1 X156.729 Y100.038 E19.33964
G1 X156.972 Y101.732 E19.39656
G1 X156.986 Y102.718 E19.42936
G1 X157.676 Y103.874 E19.47413
G1 X157.945 Y105.574 E19.53138
G1 X158 Y114.46 E19.82694
G1 X157.584 Y116.165 E19.88531
G1 X157 Y117.286 E19.92735
G1 X157 Y118.61 E19.97138
G1 X156.581 Y120.314 E20.02975
G1 X155.635 Y122.137 E20.09806
G1 X154.239 Y123.441 E20.1616
G1 X152.419 Y124.527 E20.23209
G1 X150.849 Y124.785 E20.28501
G1 X124.759 Y124.85 E21.15276
G1 X123.623 Y125.527 E21.19675
G1 X122.049 Y125.785 E21.2498
G1 X100.041 Y125.85 E21.98179
G1 X98.328 Y125.43 E22.04045
G1 X97.214 Y124.85 E22.08223
G1 X69.24 Y124.85 E23.01265
G1 X67.536 Y124.431 E23.07101
G1 X65.713 Y123.485 E23.13932
G1 X64.409 Y122.089 E23.20286
G1 X63.323 Y120.269 E23.27335
G1 X63.065 Y118.699 E23.32627
G1 X63 Y101.392 E23.9019
G1 X63.419 Y99.686 E23.96033
G1 X64.365 Y97.863 E24.02864
G1 X65.776 Y96.544 E24.09288
M204 S2000
G0 F7500 X66.015 Y96.868
M204 S500
G1 F1500 X67.387 Y96.051 E24.146
G1 X67.988 Y95.811 E24.16752
G1 X69.476 Y95.586 E24.21757
G1 X69.618 Y95.579 E24.2223
G1 X70.55 Y94.816 E24.26236
G1 X72.519 Y93.8 E24.33606
G1 X74.114 Y93.589 E24.38957
G1 X78.249 Y93.551 E24.52711
G1 X79.512 Y93.901 E24.5707
G1 X81.112 Y94.55 E24.62812
G1 X81.913 Y95.218 E24.66281
G1 X82.519 Y94.856 E24.68629
G1 X84.016 Y94.61 E24.73675
G1 X93.911 Y94.55 E25.06586
G1 X95.523 Y94.944 E25.12106
G1 X96.687 Y95.55 E25.16471
G1 X97.358 Y95.55 E25.18702
G1 X98.521 Y94.856 E25.23207
G1 X100.016 Y94.61 E25.28246
G1 X121.914 Y94.55 E26.01079
G1 X123.521 Y94.945 E26.06583
G1 X123.975 Y95.18 E26.08284
G1 X124.517 Y94.856 E26.10384
G1 X126.016 Y94.61 E26.15436
G1 X135.907 Y94.55 E26.48335
G1 X137.474 Y94.934 E26.53701
G1 X137.699 Y95.037 E26.54524
G1 X138.134 Y94.622 E26.56523
G1 X140.134 Y93.563 E26.6405
G1 X142.095 Y93.15 E26.70716
G1 X146.58 Y93.151 E26.85633
G1 X149.158 Y94.131 E26.94806
G1 X150.722 Y95.439 E27.01587
G1 X150.864 Y95.589 E27.02274
G1 X152.321 Y95.945 E27.07263
G1 X154.042 Y96.838 E27.13712
G1 X155.28 Y98.163 E27.19743
G1 X156.099 Y99.54 E27.25072
G1 X156.339 Y100.14 E27.27221
G1 X156.572 Y101.738 E27.32592
G1 X156.588 Y102.83 E27.36225
G1 X157.293 Y104.011 E27.40799
G1 X157.545 Y105.576 E27.46071
G1 X157.6 Y114.411 E27.75457
G1 X157.206 Y116.023 E27.80977
G1 X156.6 Y117.187 E27.85341
G1 X156.6 Y118.564 E27.89921
G1 X156.205 Y120.171 E27.95425
G1 X155.312 Y121.892 E28.01874
G1 X153.997 Y123.12 E28.07858
G1 X152.281 Y124.144 E28.14505
G1 X150.784 Y124.39 E28.19551
G1 X124.647 Y124.45 E29.06483
G1 X123.483 Y125.144 E29.1099
G1 X121.984 Y125.39 E29.16043
G1 X100.087 Y125.45 E29.88873
G1 X98.473 Y125.054 E29.944
G1 X97.313 Y124.45 E29.9875
G1 X69.286 Y124.45 E30.91968
G1 X67.679 Y124.055 E30.97472
G1 X65.958 Y123.162 E31.03921
G1 X64.73 Y121.847 E31.09905
G1 X63.706 Y120.131 E31.16551
G1 X63.46 Y118.634 E31.21597
G1 X63.4 Y101.437 E31.78795
G1 X63.795 Y99.829 E31.84302
G1 X64.688 Y98.108 E31.90751
G1 X66.015 Y96.868 E31.96792
M204 S2000
G0 F7500 X66.254 Y97.192
M204 S500
G1 F1500 X67.592 Y96.395 E32.01972
G1 X68.092 Y96.2 E32.03757
G1 X69.536 Y95.982 E32.08614
G1 X69.766 Y95.974 E32.09379
G1 X70.767 Y95.154 E32.13683
G1 X72.64 Y94.188 E32.20692
G1 X74.166 Y93.986 E32.25812
G1 X78.195 Y93.952 E32.39213
G1 X79.362 Y94.272 E32.43238
G1 X80.905 Y94.898 E32.48776
G1 X81.874 Y95.707 E32.52975
G1 X82.657 Y95.239 E32.56009
G1 X84.081 Y95.005 E32.60808
G1 X93.862 Y94.95 E32.93341
G1 X95.381 Y95.322 E32.98542
G1 X96.588 Y95.95 E33.03068
G1 X97.468 Y95.95 E33.05994
G1 X98.659 Y95.239 E33.10608
G1 X100.081 Y95.005 E33.15401
G1 X121.868 Y94.95 E33.87865
G1 X123.378 Y95.321 E33.93037
G1 X123.988 Y95.637 E33.95322
G1 X124.655 Y95.239 E33.97905
G1 X126.081 Y95.005 E34.02712
G1 X135.862 Y94.95 E34.35244
G1 X137.379 Y95.322 E34.40439
G1 X137.77 Y95.524 E34.41903
G1 X138.37 Y94.95 E34.44664
G1 X140.274 Y93.942 E34.5183
G1 X142.134 Y93.55 E34.58152
G1 X146.506 Y93.551 E34.72693
G1 X148.954 Y94.481 E34.81403
G1 X150.431 Y95.714 E34.87803
G1 X150.672 Y95.969 E34.88969
G1 X150.815 Y95.986 E34.89448
G1 X152.178 Y96.321 E34.94117
G1 X153.797 Y97.161 E35.00183
G1 X154.958 Y98.404 E35.0584
G1 X155.755 Y99.744 E35.11026
G1 X155.95 Y100.244 E35.12811
G1 X156.172 Y101.744 E35.17854
G1 X156.19 Y102.944 E35.21846
G1 X156.91 Y104.151 E35.2652
G1 X157.145 Y105.579 E35.31334
G1 X157.2 Y114.362 E35.60547
G1 X156.828 Y115.881 E35.65748
G1 X156.2 Y117.088 E35.70274
G1 X156.2 Y118.518 E35.7503
G1 X155.829 Y120.028 E35.80202
G1 X154.989 Y121.647 E35.86268
G1 X153.755 Y122.799 E35.91883
G1 X152.143 Y123.761 E35.98127
G1 X150.719 Y123.995 E36.02926
G1 X124.535 Y124.05 E36.90015
G1 X123.343 Y124.761 E36.94631
G1 X121.919 Y124.995 E36.99431
G1 X100.133 Y125.05 E37.71892
G1 X98.618 Y124.678 E37.7708
G1 X97.412 Y124.05 E37.81603
G1 X69.332 Y124.05 E38.74997
G1 X67.822 Y123.679 E38.80169
G1 X66.203 Y122.839 E38.86235
G1 X65.051 Y121.605 E38.9185
G1 X64.089 Y119.993 E38.98094
G1 X63.855 Y118.569 E39.02894
G1 X63.8 Y101.482 E39.59725
G1 X64.171 Y99.972 E39.64897
G1 X65.011 Y98.353 E39.70963
G1 X66.254 Y97.192 E39.76621
M204 S2000
G0 F7500 X66.493 Y97.516
M204 S500
G1 F1500 X67.797 Y96.739 E39.81669
G1 X68.192 Y96.59 E39.83073
G1 X69.596 Y96.378 E39.87796
G1 X69.959 Y96.368 E39.89004
G1 X70.098 Y96.218 E39.89684
G1 X70.987 Y95.49 E39.93506
G1 X72.759 Y94.576 E40.00137
G1 X74.218 Y94.383 E40.05032
G1 X78.143 Y94.352 E40.18087
G1 X79.212 Y94.643 E40.21772
G1 X80.698 Y95.246 E40.27106
G1 X81.835 Y96.195 E40.32032
G1 X82.795 Y95.622 E40.3575
G1 X84.146 Y95.4 E40.40304
G1 X93.817 Y95.35 E40.7247
G1 X95.236 Y95.698 E40.7733
G1 X96.489 Y96.35 E40.82028
G1 X97.577 Y96.35 E40.85647
G1 X98.797 Y95.622 E40.90372
G1 X100.146 Y95.4 E40.94919
G1 X121.821 Y95.35 E41.6701
G1 X123.236 Y95.698 E41.71857
G1 X124.002 Y96.094 E41.74725
G1 X124.793 Y95.622 E41.77789
G1 X126.146 Y95.4 E41.82349
G1 X135.817 Y95.35 E42.14515
G1 X137.236 Y95.698 E42.19375
G1 X137.84 Y96.011 E42.21637
G1 X138.606 Y95.278 E42.25164
G1 X140.414 Y94.321 E42.31968
G1 X142.174 Y93.95 E42.3795
G1 X146.432 Y93.951 E42.52112
G1 X148.748 Y94.831 E42.60352
G1 X150.14 Y95.989 E42.66375
G1 X150.487 Y96.356 E42.68055
G1 X150.72 Y96.374 E42.68832
G1 X152.035 Y96.697 E42.73336
G1 X153.552 Y97.484 E42.7902
G1 X154.634 Y98.643 E42.84293
G1 X155.411 Y99.949 E42.89348
G1 X155.56 Y100.344 E42.90752
G1 X155.772 Y101.75 E42.95481
G1 X155.792 Y103.058 E42.99832
G1 X156.527 Y104.291 E43.04607
G1 X156.75 Y105.644 E43.09167
G1 X156.8 Y114.317 E43.38014
G1 X156.452 Y115.736 E43.42874
G1 X155.8 Y116.989 E43.47572
G1 X155.8 Y118.471 E43.52501
G1 X155.452 Y119.886 E43.57347
G1 X154.666 Y121.402 E43.63027
G1 X153.513 Y122.478 E43.68272
G1 X152.005 Y123.378 E43.74113
G1 X150.654 Y123.6 E43.78667
G1 X124.425 Y123.65 E44.65905
G1 X123.205 Y124.378 E44.70631
G1 X121.854 Y124.6 E44.75184
G1 X100.179 Y124.65 E45.47276
G1 X98.763 Y124.302 E45.52126
G1 X97.511 Y123.65 E45.56821
G1 X69.379 Y123.65 E46.50388
G1 X67.964 Y123.302 E46.55235
G1 X66.448 Y122.516 E46.60914
G1 X65.372 Y121.363 E46.6616
G1 X64.472 Y119.855 E46.72001
G1 X64.25 Y118.504 E46.76554
G1 X64.2 Y101.529 E47.33014
G1 X64.548 Y100.114 E47.3786
G1 X65.334 Y98.598 E47.4354
G1 X66.493 Y97.516 E47.48813
M204 S2000
G0 F7500 X66.732 Y97.84
M204 S500
G1 F1500 X68.002 Y97.083 E47.53731
G1 X68.291 Y96.98 E47.54751
G1 X69.656 Y96.774 E47.59343
G1 X70.146 Y96.764 E47.60973
G1 X70.351 Y96.527 E47.62015
G1 X71.207 Y95.826 E47.65695
G1 X72.878 Y94.964 E47.71949
G1 X74.27 Y94.78 E47.76619
G1 X78.092 Y94.752 E47.89331
G1 X79.062 Y95.014 E47.92673
G1 X80.491 Y95.594 E47.97802
G1 X81.797 Y96.684 E48.0346
G1 X82.935 Y96.005 E48.07868
G1 X84.211 Y95.795 E48.12169
G1 X93.772 Y95.75 E48.43969
G1 X95.093 Y96.074 E48.48493
G1 X96.262 Y96.679 E48.52871
G1 X96.366 Y96.75 E48.5329
G1 X97.687 Y96.75 E48.57684
G1 X98.935 Y96.005 E48.62518
G1 X100.211 Y95.795 E48.66819
G1 X121.775 Y95.75 E49.38541
G1 X123.093 Y96.074 E49.43055
G1 X124.016 Y96.551 E49.46511
G1 X124.931 Y96.005 E49.50055
G1 X126.211 Y95.795 E49.54369
G1 X135.772 Y95.75 E49.8617
G1 X137.093 Y96.074 E49.90694
G1 X137.94 Y96.513 E49.93867
G1 X138.144 Y96.27 E49.94922
G1 X138.845 Y95.604 E49.98138
G1 X140.551 Y94.7 E50.04559
G1 X142.213 Y94.35 E50.10209
G1 X146.358 Y94.351 E50.23995
G1 X148.544 Y95.181 E50.31772
G1 X149.849 Y96.264 E50.37412
G1 X150.308 Y96.75 E50.39636
G1 X150.624 Y96.762 E50.40688
G1 X151.893 Y97.074 E50.45034
G1 X153.307 Y97.807 E50.50331
G1 X154.31 Y98.882 E50.55221
G1 X155.067 Y100.154 E50.60145
G1 X155.17 Y100.443 E50.61165
G1 X155.376 Y101.81 E50.65763
G1 X155.393 Y103.171 E50.7029
G1 X156.144 Y104.431 E50.75169
G1 X156.355 Y105.709 E50.79477
G1 X156.4 Y114.272 E51.07958
G1 X156.076 Y115.593 E51.12482
G1 X155.471 Y116.762 E51.1686
G1 X155.4 Y116.866 E51.17279
G1 X155.4 Y118.425 E51.22464
G1 X155.076 Y119.743 E51.26978
G1 X154.343 Y121.157 E51.32275
G1 X153.271 Y122.157 E51.37151
G1 X151.867 Y122.995 E51.4259
G1 X150.589 Y123.205 E51.46897
G1 X124.314 Y123.25 E52.34288
G1 X123.065 Y123.995 E52.39126
G1 X121.789 Y124.205 E52.43427
G1 X100.225 Y124.25 E53.15149
G1 X98.907 Y123.926 E53.19663
G1 X97.738 Y123.321 E53.24041
G1 X97.634 Y123.25 E53.2446
G1 X69.425 Y123.25 E54.18283
G1 X68.107 Y122.926 E54.22798
G1 X66.693 Y122.193 E54.28095
G1 X65.693 Y121.121 E54.32971
G1 X64.855 Y119.717 E54.38409
G1 X64.645 Y118.439 E54.42717
G1 X64.6 Y101.575 E54.98807
G1 X64.924 Y100.257 E55.03321
G1 X65.657 Y98.843 E55.08618
G1 X66.732 Y97.84 E55.13509
M204 S2000
G0 F7500 X66.974 Y98.162
M204 S500
G1 F1500 X68.207 Y97.427 E55.18283
G1 X68.351 Y97.376 E55.18791
G1 X69.716 Y97.17 E55.23382
G1 X70.338 Y97.162 E55.25451
G1 X70.604 Y96.836 E55.26851
G1 X71.427 Y96.162 E55.30389
G1 X72.997 Y95.352 E55.36265
G1 X74.322 Y95.177 E55.4071
G1 X78.042 Y95.152 E55.53083
G1 X78.912 Y95.385 E55.56079
G1 X80.284 Y95.942 E55.61004
G1 X81.497 Y96.949 E55.66247
G1 X81.687 Y97.15 E55.67167
G1 X81.796 Y97.15 E55.6753
G1 X83.073 Y96.388 E55.72476
G1 X84.276 Y96.19 E55.76531
G1 X93.727 Y96.15 E56.07965
G1 X94.95 Y96.45 E56.12153
G1 X96.078 Y97.034 E56.16378
G1 X96.233 Y97.15 E56.17022
G1 X97.796 Y97.15 E56.22221
G1 X99.073 Y96.388 E56.27167
G1 X100.276 Y96.19 E56.31222
G1 X121.729 Y96.15 E57.02575
G1 X122.95 Y96.45 E57.06757
G1 X124.03 Y97.009 E57.10801
G1 X125.071 Y96.388 E57.14833
